;FLAVOR:Marlin
;TIME:22828
;Filament used: 21.2596m
;Layer height: 0.16
;MINX:59
;MINY:59
;MINZ:0.2
;MAXX:181
;MAXY:181
;MAXZ:9.88
;Generated with Cura_SteamEngine master
M140 S60
M105
M190 S60
M104 S200
M105
M109 S200
M82 ;absolute extrusion mode
; Ender 3 Custom Start G-code
G92 E0 ; Reset Extruder
G28 ; Home all axes
G1 Z2.0 F3000 ; Move Z Axis up little to prevent scratching of Heat Bed
G1 X0.1 Y20 Z0.3 F5000.0 ; Move to start position
G1 X0.1 Y200.0 Z0.3 F1500.0 E15 ; Draw the first line
G1 X0.4 Y200.0 Z0.3 F5000.0 ; Move to side a little
G1 X0.4 Y20 Z0.3 F1500.0 E30 ; Draw the second line
G92 E0 ; Reset Extruder
G1 Z2.0 F3000 ; Move Z Axis up little to prevent scratching of Heat Bed
G1 X5 Y20 Z0.3 F5000.0 ; Move over to prevent blob squish
G92 E0
G92 E0
G1 F1500 E-6.5
;LAYER_COUNT:51
;LAYER:0
M107
G0 F6000 X63.605 Y63.783 Z0.2
;TYPE:SKIRT
G1 F1500 E0
G1 F1200 X64.288 Y63.141 E0.03118
G1 X65.23 Y62.414 E0.07075
G1 X65.956 Y61.915 E0.10005
G1 X66.488 Y61.562 E0.12129
G1 X67.11 Y61.159 E0.14594
G1 X67.918 Y60.683 E0.17713
G1 X68.764 Y60.278 E0.20833
G1 X69.641 Y59.946 E0.23952
G1 X70.556 Y59.687 E0.27115
G1 X70.902 Y59.608 E0.28295
G1 X71.493 Y59.482 E0.30305
G1 X72.17 Y59.347 E0.32601
G1 X73.031 Y59.189 E0.35512
G1 X74.341 Y59.03 E0.39901
G1 X74.899 Y59.009 E0.41759
G1 X75.667 Y59 E0.44313
G1 X169.293 Y59 E3.55715
G1 X170.149 Y59.011 E3.58562
G1 X171.085 Y59.065 E3.6168
G1 X172.013 Y59.197 E3.64798
G1 X172.927 Y59.409 E3.67918
G1 X173.819 Y59.698 E3.71037
G1 X174.684 Y60.061 E3.74157
G1 X175.514 Y60.497 E3.77275
G1 X176.305 Y61.002 E3.80397
G1 X177.049 Y61.573 E3.83516
G1 X177.742 Y62.205 E3.86636
G1 X178.379 Y62.893 E3.89754
G1 X178.954 Y63.634 E3.92874
G1 X179.465 Y64.42 E3.95992
G1 X179.907 Y65.248 E3.99114
G1 X180.276 Y66.11 E4.02232
G1 X180.571 Y67 E4.05351
G1 X180.789 Y67.912 E4.0847
G1 X180.929 Y68.84 E4.11591
G1 X180.986 Y69.692 E4.14431
G1 X180.995 Y70.003 E4.15466
G1 X181 Y70.321 E4.16524
G1 X180.999 Y169.4 E7.46062
G1 X180.99 Y170.127 E7.4848
G1 X180.939 Y171.064 E7.51601
G1 X180.807 Y171.992 E7.54719
G1 X180.598 Y172.906 E7.57837
G1 X180.311 Y173.799 E7.60957
G1 X179.949 Y174.665 E7.64079
G1 X179.515 Y175.496 E7.67197
G1 X179.011 Y176.287 E7.70316
G1 X178.442 Y177.032 E7.73434
G1 X177.811 Y177.727 E7.76557
G1 X177.124 Y178.365 E7.79675
G1 X176.385 Y178.942 E7.82793
G1 X175.599 Y179.454 E7.85913
G1 X174.773 Y179.897 E7.89031
G1 X173.911 Y180.269 E7.92153
G1 X173.022 Y180.565 E7.9527
G1 X172.11 Y180.785 E7.9839
G1 X171.183 Y180.926 E8.01509
G1 X170.299 Y180.987 E8.04456
G1 X169.978 Y180.996 E8.05524
G1 X169.67 Y181 E8.06548
G1 X70.565 Y180.999 E11.36173
G1 X69.867 Y180.99 E11.38495
G1 X68.931 Y180.938 E11.41613
G1 X68.002 Y180.806 E11.44734
G1 X67.088 Y180.596 E11.47853
G1 X66.195 Y180.309 E11.50973
G1 X65.33 Y179.946 E11.54093
G1 X64.499 Y179.512 E11.57211
G1 X63.708 Y179.008 E11.6033
G1 X62.963 Y178.438 E11.6345
G1 X62.269 Y177.807 E11.6657
G1 X61.632 Y177.12 E11.69686
G1 X61.055 Y176.38 E11.72807
G1 X60.543 Y175.594 E11.75927
G1 X60.1 Y174.767 E11.79047
G1 X59.729 Y173.906 E11.82166
G1 X59.433 Y173.016 E11.85285
G1 X59.214 Y172.104 E11.88405
G1 X59.073 Y171.177 E11.91523
G1 X59.013 Y170.288 E11.94487
G1 X59.004 Y169.955 E11.95595
G1 X59 Y169.658 E11.96583
G1 X59.001 Y75.537 E15.09631
G1 X59.012 Y74.827 E15.11992
G1 X59.067 Y73.89 E15.15114
G1 X59.19 Y73.023 E15.18027
G1 X59.343 Y72.193 E15.20834
G1 X59.496 Y71.43 E15.23422
G1 X59.637 Y70.775 E15.25651
G1 X59.874 Y69.867 E15.28772
G1 X60.186 Y68.983 E15.3189
G1 X60.573 Y68.129 E15.35008
G1 X61.008 Y67.35 E15.37976
G1 X61.213 Y67.021 E15.39265
G1 X61.553 Y66.498 E15.4134
G1 X62.002 Y65.828 E15.44022
G1 X62.414 Y65.23 E15.46438
G1 X62.978 Y64.481 E15.49556
G1 X63.605 Y63.783 E15.52677
G0 F6000 X63.914 Y64.039
G1 F1200 X64.588 Y63.411 E15.55741
G1 X65.457 Y62.743 E15.59386
G1 X66.178 Y62.248 E15.62295
G1 X66.705 Y61.898 E15.64399
G1 X67.327 Y61.495 E15.66864
G1 X68.121 Y61.028 E15.69928
G1 X68.952 Y60.632 E15.7299
G1 X69.814 Y60.31 E15.7605
G1 X70.648 Y60.076 E15.78931
G1 X70.986 Y59.999 E15.80084
G1 X71.571 Y59.875 E15.82073
G1 X72.418 Y59.707 E15.84945
G1 X73.103 Y59.582 E15.87261
G1 X74.365 Y59.429 E15.91489
G1 X74.904 Y59.409 E15.93283
G1 X75.667 Y59.4 E15.95821
G1 X169.293 Y59.4 E19.07223
G1 X170.143 Y59.411 E19.1005
G1 X171.062 Y59.464 E19.13112
G1 X171.973 Y59.597 E19.16174
G1 X172.869 Y59.808 E19.19235
G1 X173.743 Y60.096 E19.22296
G1 X174.59 Y60.459 E19.25361
G1 X175.401 Y60.894 E19.28422
G1 X176.171 Y61.398 E19.31483
G1 X176.895 Y61.967 E19.34546
G1 X177.567 Y62.597 E19.37609
G1 X178.182 Y63.282 E19.40671
G1 X178.735 Y64.018 E19.43733
G1 X179.222 Y64.799 E19.46794
G1 X179.639 Y65.62 E19.49857
G1 X179.984 Y66.474 E19.5292
G1 X180.253 Y67.354 E19.55981
G1 X180.445 Y68.255 E19.59045
G1 X180.558 Y69.168 E19.62105
G1 X180.587 Y69.703 E19.63887
G1 X180.596 Y70.014 E19.64922
G1 X180.6 Y70.321 E19.65943
G1 X180.599 Y169.395 E22.95464
G1 X180.59 Y170.122 E22.97883
G1 X180.539 Y171.041 E23.00944
G1 X180.408 Y171.953 E23.04008
G1 X180.198 Y172.849 E23.07069
G1 X179.912 Y173.724 E23.10131
G1 X179.551 Y174.571 E23.13193
G1 X179.117 Y175.383 E23.16256
G1 X178.615 Y176.155 E23.19318
G1 X178.047 Y176.88 E23.22382
G1 X177.419 Y177.553 E23.25443
G1 X176.735 Y178.169 E23.28505
G1 X176 Y178.723 E23.31566
G1 X175.22 Y179.212 E23.34628
G1 X174.4 Y179.631 E23.37691
G1 X173.547 Y179.977 E23.40752
G1 X172.667 Y180.248 E23.43815
G1 X171.767 Y180.441 E23.46876
G1 X170.853 Y180.556 E23.4994
G1 X170.288 Y180.587 E23.51822
G1 X169.967 Y180.596 E23.5289
G1 X169.67 Y180.6 E23.53878
G1 X70.57 Y180.599 E26.83486
G1 X69.872 Y180.59 E26.85808
G1 X68.953 Y180.538 E26.8887
G1 X68.042 Y180.407 E26.91931
G1 X67.146 Y180.197 E26.94992
G1 X66.271 Y179.91 E26.98054
G1 X65.424 Y179.548 E27.01118
G1 X64.612 Y179.114 E27.0418
G1 X63.841 Y178.612 E27.0724
G1 X63.116 Y178.044 E27.10304
G1 X62.443 Y177.415 E27.13367
G1 X61.828 Y176.731 E27.16427
G1 X61.274 Y175.996 E27.19488
G1 X60.786 Y175.215 E27.22551
G1 X60.367 Y174.395 E27.25614
G1 X60.021 Y173.542 E27.28675
G1 X59.751 Y172.662 E27.31737
G1 X59.558 Y171.761 E27.34802
G1 X59.444 Y170.848 E27.37862
G1 X59.413 Y170.277 E27.39764
G1 X59.404 Y169.944 E27.40872
G1 X59.4 Y169.658 E27.41823
G1 X59.401 Y75.543 E30.54851
G1 X59.412 Y74.833 E30.57213
G1 X59.466 Y73.914 E30.60275
G1 X59.583 Y73.095 E30.63026
G1 X59.735 Y72.271 E30.65813
G1 X59.887 Y71.514 E30.68381
G1 X60.028 Y70.859 E30.7061
G1 X60.261 Y69.968 E30.73673
G1 X60.57 Y69.101 E30.76734
G1 X60.953 Y68.264 E30.79796
G1 X61.349 Y67.558 E30.82488
G1 X61.549 Y67.238 E30.83743
G1 X61.886 Y66.72 E30.85798
G1 X62.331 Y66.055 E30.8846
G1 X62.743 Y65.457 E30.90875
G1 X63.298 Y64.722 E30.93938
G1 X63.914 Y64.039 E30.96997
G0 F6000 X64.224 Y64.295
G1 F1200 X64.887 Y63.682 E31.00001
G1 X65.684 Y63.073 E31.03337
G1 X66.399 Y62.581 E31.06224
G1 X66.923 Y62.234 E31.08314
G1 X67.545 Y61.831 E31.10779
G1 X68.324 Y61.374 E31.13783
G1 X69.14 Y60.987 E31.16787
G1 X69.987 Y60.675 E31.19789
G1 X70.74 Y60.466 E31.22388
G1 X71.069 Y60.39 E31.23511
G1 X71.649 Y60.267 E31.25483
G1 X72.49 Y60.101 E31.28334
G1 X73.175 Y59.976 E31.3065
G1 X74.389 Y59.829 E31.34717
G1 X74.909 Y59.809 E31.36448
G1 X75.667 Y59.8 E31.3897
G1 X169.293 Y59.8 E34.50371
G1 X170.137 Y59.811 E34.53178
G1 X171.039 Y59.864 E34.56183
G1 X171.932 Y59.996 E34.59186
G1 X172.81 Y60.207 E34.62189
G1 X173.666 Y60.495 E34.65193
G1 X174.493 Y60.857 E34.68196
G1 X175.285 Y61.292 E34.71201
G1 X176.036 Y61.794 E34.74206
G1 X176.739 Y62.361 E34.7721
G1 X177.389 Y62.988 E34.80213
G1 X177.981 Y63.67 E34.83217
G1 X178.511 Y64.401 E34.8622
G1 X178.973 Y65.177 E34.89224
G1 X179.366 Y65.99 E34.92227
G1 X179.684 Y66.835 E34.9523
G1 X179.927 Y67.705 E34.98235
G1 X180.092 Y68.593 E35.01239
G1 X180.187 Y69.715 E35.04984
G1 X180.196 Y70.026 E35.06019
G1 X180.2 Y70.321 E35.07
G1 X180.199 Y169.39 E38.36505
G1 X180.19 Y170.117 E38.38923
G1 X180.139 Y171.019 E38.41928
G1 X180.008 Y171.913 E38.44933
G1 X179.799 Y172.791 E38.47935
G1 X179.513 Y173.648 E38.5094
G1 X179.152 Y174.476 E38.53944
G1 X178.72 Y175.268 E38.56945
G1 X178.219 Y176.02 E38.5995
G1 X177.653 Y176.724 E38.62955
G1 X177.028 Y177.375 E38.65956
G1 X176.347 Y177.969 E38.68962
G1 X175.616 Y178.5 E38.71967
G1 X174.842 Y178.964 E38.74968
G1 X174.029 Y179.358 E38.77973
G1 X173.185 Y179.678 E38.80975
G1 X172.315 Y179.923 E38.83981
G1 X171.428 Y180.089 E38.86983
G1 X170.277 Y180.187 E38.90825
G1 X169.956 Y180.196 E38.91893
G1 X169.67 Y180.2 E38.92844
G1 X70.575 Y180.199 E42.22436
G1 X69.877 Y180.19 E42.24757
G1 X68.976 Y180.139 E42.27759
G1 X68.082 Y180.007 E42.30765
G1 X67.204 Y179.798 E42.33766
G1 X66.347 Y179.511 E42.36772
G1 X65.52 Y179.15 E42.39774
G1 X64.727 Y178.717 E42.42779
G1 X63.976 Y178.216 E42.45781
G1 X63.272 Y177.65 E42.48786
G1 X62.621 Y177.024 E42.5179
G1 X62.028 Y176.343 E42.54793
G1 X61.498 Y175.612 E42.57796
G1 X61.034 Y174.837 E42.60801
G1 X60.64 Y174.024 E42.63805
G1 X60.32 Y173.18 E42.66808
G1 X60.076 Y172.31 E42.69813
G1 X59.91 Y171.422 E42.72817
G1 X59.813 Y170.267 E42.76673
G1 X59.804 Y169.934 E42.77781
G1 X59.8 Y169.658 E42.78699
G1 X59.801 Y75.549 E45.91706
G1 X59.812 Y74.839 E45.94068
G1 X59.866 Y73.937 E45.97074
G1 X59.977 Y73.167 E45.99661
G1 X60.127 Y72.35 E46.02424
G1 X60.278 Y71.598 E46.04975
G1 X60.419 Y70.943 E46.07203
G1 X60.648 Y70.07 E46.10205
G1 X60.954 Y69.22 E46.1321
G1 X61.333 Y68.4 E46.16215
G1 X61.69 Y67.767 E46.18632
G1 X61.885 Y67.456 E46.19853
G1 X62.219 Y66.942 E46.21891
G1 X62.661 Y66.282 E46.24533
G1 X63.073 Y65.684 E46.26949
G1 X63.617 Y64.964 E46.2995
G1 X64.224 Y64.295 E46.32955
G1 F1500 E39.82955
;MESH:WaterCover (small).stl
G0 F6000 X160.948 Y101.109
G0 X159.311 Y101.996
G0 X162.016 Y103.881
;TYPE:WALL-INNER
G1 F1500 E46.32955
G1 F1200 X162.669 Y103.99 E46.35156
G1 X163.331 Y103.99 E46.37358
G1 X163.984 Y103.881 E46.3956
G1 X164.608 Y103.667 E46.41754
G1 X165.19 Y103.352 E46.43955
G1 X165.712 Y102.945 E46.46157
G1 X166.159 Y102.458 E46.48356
G1 X166.521 Y101.905 E46.50554
G1 X166.787 Y101.299 E46.52755
G1 X166.949 Y100.659 E46.54951
G1 X167.003 Y100 E46.5715
G1 X166.949 Y99.341 E46.59349
G1 X166.787 Y98.701 E46.61545
G1 X166.521 Y98.095 E46.63746
G1 X166.159 Y97.542 E46.65945
G1 X165.712 Y97.055 E46.68143
G1 X165.189 Y96.649 E46.70345
G1 X164.609 Y96.335 E46.72539
G1 X163.984 Y96.119 E46.74738
G1 X163.331 Y96.01 E46.7694
G1 X162.669 Y96.01 E46.79142
G1 X162.016 Y96.119 E46.81344
G1 X161.391 Y96.335 E46.83543
G1 X160.811 Y96.649 E46.85737
G1 X160.288 Y97.055 E46.87939
G1 X159.841 Y97.542 E46.90138
G1 X159.479 Y98.095 E46.92336
G1 X159.213 Y98.701 E46.94537
G1 X159.051 Y99.341 E46.96733
G1 X158.997 Y100 E46.98932
G1 X159.051 Y100.659 E47.01132
G1 X159.213 Y101.299 E47.03327
G1 X159.479 Y101.905 E47.05529
G1 X159.841 Y102.458 E47.07727
G1 X160.288 Y102.945 E47.09925
G1 X160.81 Y103.352 E47.12127
G1 X161.392 Y103.667 E47.14328
G1 X162.016 Y103.881 E47.16522
G0 F6000 X162.115 Y103.492
G1 F1200 X162.702 Y103.59 E47.18502
G1 X163.298 Y103.59 E47.20484
G1 X163.885 Y103.492 E47.22463
G1 X164.447 Y103.299 E47.2444
G1 X164.97 Y103.016 E47.26417
G1 X165.44 Y102.65 E47.28399
G1 X165.842 Y102.212 E47.30376
G1 X166.168 Y101.714 E47.32356
G1 X166.407 Y101.169 E47.34335
G1 X166.553 Y100.593 E47.36312
G1 X166.602 Y100 E47.38291
G1 X166.553 Y99.407 E47.4027
G1 X166.407 Y98.831 E47.42246
G1 X166.168 Y98.286 E47.44225
G1 X165.842 Y97.788 E47.46205
G1 X165.44 Y97.35 E47.48182
G1 X164.97 Y96.985 E47.50162
G1 X164.447 Y96.702 E47.52139
G1 X163.885 Y96.508 E47.54117
G1 X163.298 Y96.41 E47.56096
G1 X162.702 Y96.41 E47.58079
G1 X162.115 Y96.508 E47.60058
G1 X161.553 Y96.702 E47.62035
G1 X161.03 Y96.985 E47.64013
G1 X160.56 Y97.35 E47.65993
G1 X160.158 Y97.788 E47.6797
G1 X159.832 Y98.286 E47.6995
G1 X159.593 Y98.831 E47.71929
G1 X159.447 Y99.407 E47.73905
G1 X159.398 Y100 E47.75884
G1 X159.447 Y100.593 E47.77863
G1 X159.593 Y101.169 E47.7984
G1 X159.832 Y101.714 E47.81819
G1 X160.158 Y102.212 E47.83799
G1 X160.56 Y102.65 E47.85776
G1 X161.03 Y103.016 E47.87757
G1 X161.553 Y103.299 E47.89735
G1 X162.115 Y103.492 E47.91712
G0 F6000 X162.214 Y103.103
;TYPE:WALL-OUTER
G1 F1200 X162.735 Y103.19 E47.93468
G1 X163.265 Y103.19 E47.95231
G1 X163.786 Y103.103 E47.96988
G1 X164.286 Y102.931 E47.98747
G1 X164.751 Y102.68 E48.00504
G1 X165.168 Y102.355 E48.02263
G1 X165.525 Y101.966 E48.04019
G1 X165.815 Y101.523 E48.0578
G1 X166.027 Y101.039 E48.07537
G1 X166.157 Y100.527 E48.09294
G1 X166.201 Y100 E48.11053
G1 X166.157 Y99.473 E48.12812
G1 X166.027 Y98.961 E48.14569
G1 X165.815 Y98.477 E48.16326
G1 X165.525 Y98.034 E48.18088
G1 X165.168 Y97.645 E48.19844
G1 X164.751 Y97.321 E48.216
G1 X164.286 Y97.069 E48.23359
G1 X163.786 Y96.897 E48.25118
G1 X163.265 Y96.81 E48.26875
G1 X162.735 Y96.81 E48.28637
G1 X162.214 Y96.897 E48.30394
G1 X161.714 Y97.069 E48.32153
G1 X161.249 Y97.321 E48.33912
G1 X160.832 Y97.645 E48.35668
G1 X160.475 Y98.034 E48.37425
G1 X160.185 Y98.477 E48.39186
G1 X159.973 Y98.961 E48.40943
G1 X159.843 Y99.473 E48.427
G1 X159.799 Y100 E48.44459
G1 X159.843 Y100.527 E48.46218
G1 X159.973 Y101.039 E48.47975
G1 X160.185 Y101.523 E48.49732
G1 X160.475 Y101.966 E48.51493
G1 X160.832 Y102.355 E48.53249
G1 X161.249 Y102.68 E48.55008
G1 X161.714 Y102.931 E48.56765
G1 X162.214 Y103.103 E48.58524
G0 F6000 X162.106 Y103.529
G1 F1500 E42.08524
G0 F6000 X162.653 Y104.181
G0 X162.804 Y102.326
G0 X162.428 Y157.737
G0 X161.968 Y155.934
G0 X160.286 Y157.887
G0 X159.974 Y158.362
G0 X159.746 Y158.884
G0 X159.606 Y159.434
G0 X159.558 Y160
G0 X159.606 Y160.566
G0 X159.746 Y161.116
G0 X159.93 Y161.538
G0 X161.391 Y163.665
;TYPE:WALL-INNER
G1 F1500 E48.58524
G1 F1200 X162.016 Y163.881 E48.60723
G1 X162.669 Y163.99 E48.62925
G1 X163.331 Y163.99 E48.65127
G1 X163.984 Y163.881 E48.67329
G1 X164.609 Y163.665 E48.69528
G1 X165.189 Y163.351 E48.71722
G1 X165.712 Y162.945 E48.73924
G1 X166.159 Y162.458 E48.76123
G1 X166.521 Y161.905 E48.78321
G1 X166.787 Y161.299 E48.80522
G1 X166.949 Y160.659 E48.82718
G1 X167.003 Y160 E48.84917
G1 X166.949 Y159.341 E48.87117
G1 X166.787 Y158.701 E48.89312
G1 X166.521 Y158.095 E48.91513
G1 X166.159 Y157.542 E48.93712
G1 X165.712 Y157.055 E48.9591
G1 X165.189 Y156.649 E48.98113
G1 X164.609 Y156.335 E49.00306
G1 X163.984 Y156.119 E49.02506
G1 X163.331 Y156.01 E49.04708
G1 X162.669 Y156.01 E49.06909
G1 X162.016 Y156.119 E49.09111
G1 X161.391 Y156.335 E49.11311
G1 X160.811 Y156.649 E49.13504
G1 X160.288 Y157.055 E49.15706
G1 X159.841 Y157.542 E49.17905
G1 X159.479 Y158.095 E49.20103
G1 X159.213 Y158.701 E49.22305
G1 X159.051 Y159.341 E49.245
G1 X158.997 Y160 E49.267
G1 X159.051 Y160.659 E49.28899
G1 X159.213 Y161.299 E49.31095
G1 X159.479 Y161.905 E49.33296
G1 X159.841 Y162.458 E49.35494
G1 X160.288 Y162.945 E49.37693
G1 X160.811 Y163.351 E49.39895
G1 X161.391 Y163.665 E49.42089
G0 F6000 X161.553 Y163.298
G1 F1200 X162.115 Y163.492 E49.44066
G1 X162.702 Y163.59 E49.46045
G1 X163.298 Y163.59 E49.48028
G1 X163.885 Y163.492 E49.50007
G1 X164.447 Y163.298 E49.51985
G1 X164.97 Y163.015 E49.53962
G1 X165.44 Y162.65 E49.55942
G1 X165.842 Y162.212 E49.57919
G1 X166.168 Y161.714 E49.59899
G1 X166.407 Y161.169 E49.61878
G1 X166.553 Y160.593 E49.63854
G1 X166.602 Y160 E49.65833
G1 X166.553 Y159.407 E49.67812
G1 X166.407 Y158.831 E49.69789
G1 X166.168 Y158.286 E49.71768
G1 X165.842 Y157.788 E49.73748
G1 X165.44 Y157.35 E49.75725
G1 X164.97 Y156.985 E49.77704
G1 X164.447 Y156.702 E49.79682
G1 X163.885 Y156.508 E49.8166
G1 X163.298 Y156.41 E49.83639
G1 X162.702 Y156.41 E49.85621
G1 X162.115 Y156.508 E49.87601
G1 X161.553 Y156.702 E49.89578
G1 X161.03 Y156.985 E49.91556
G1 X160.56 Y157.35 E49.93535
G1 X160.158 Y157.788 E49.95513
G1 X159.832 Y158.286 E49.97492
G1 X159.593 Y158.831 E49.99472
G1 X159.447 Y159.407 E50.01448
G1 X159.398 Y160 E50.03427
G1 X159.447 Y160.593 E50.05406
G1 X159.593 Y161.169 E50.07383
G1 X159.832 Y161.714 E50.09362
G1 X160.158 Y162.212 E50.11342
G1 X160.56 Y162.65 E50.13319
G1 X161.03 Y163.015 E50.15298
G1 X161.553 Y163.298 E50.17276
G0 F6000 X161.714 Y162.931
;TYPE:WALL-OUTER
G1 F1200 X162.214 Y163.103 E50.19035
G1 X162.735 Y163.19 E50.20792
