;FLAVOR:Marlin
;TIME:6830
;Filament used: 4.25077m
;Layer height: 0.16
;MINX:82
;MINY:66
;MINZ:0.2
;MAXX:138
;MAXY:154
;MAXZ:11.88
;Generated with Cura_SteamEngine master
M140 S60
M105
M190 S60
M104 S200
M105
M109 S200
M82 ;absolute extrusion mode
; Ender 3 Custom Start G-code
G92 E0 ; Reset Extruder
G28 ; Home all axes
G1 Z2.0 F3000 ; Move Z Axis up little to prevent scratching of Heat Bed
G1 X0.1 Y20 Z0.3 F5000.0 ; Move to start position
G1 X0.1 Y200.0 Z0.3 F1500.0 E15 ; Draw the first line
G1 X0.4 Y200.0 Z0.3 F5000.0 ; Move to side a little
G1 X0.4 Y20 Z0.3 F1500.0 E30 ; Draw the second line
G92 E0 ; Reset Extruder
G1 Z2.0 F3000 ; Move Z Axis up little to prevent scratching of Heat Bed
G1 X5 Y20 Z0.3 F5000.0 ; Move over to prevent blob squish
G92 E0
G92 E0
G1 F1500 E-6.5
;LAYER_COUNT:61
;LAYER:0
M107
G0 F6000 X84.566 Y69.958 Z0.2
;TYPE:SKIRT
G1 F1500 E0
G1 F1200 X85.198 Y69.264 E0.03122
G1 X85.886 Y68.627 E0.0624
G1 X86.626 Y68.051 E0.09359
G1 X87.412 Y67.539 E0.12479
G1 X88.239 Y67.097 E0.15598
G1 X89.101 Y66.727 E0.18718
G1 X89.991 Y66.431 E0.21838
G1 X90.903 Y66.213 E0.24957
G1 X91.83 Y66.072 E0.28075
G1 X92.701 Y66.013 E0.30979
G1 X93.022 Y66.004 E0.32047
G1 X93.33 Y66 E0.33071
G1 X126.293 Y66 E1.42707
G1 X127.149 Y66.011 E1.45554
G1 X128.085 Y66.065 E1.48672
G1 X129.013 Y66.197 E1.5179
G1 X129.927 Y66.409 E1.54911
G1 X130.819 Y66.698 E1.58029
G1 X131.684 Y67.061 E1.61149
G1 X132.514 Y67.497 E1.64268
G1 X133.305 Y68.002 E1.67389
G1 X134.049 Y68.573 E1.70508
G1 X134.742 Y69.205 E1.73628
G1 X135.379 Y69.893 E1.76746
G1 X135.954 Y70.634 E1.79866
G1 X136.465 Y71.42 E1.82984
G1 X136.907 Y72.248 E1.86106
G1 X137.276 Y73.11 E1.89224
G1 X137.571 Y74 E1.92343
G1 X137.789 Y74.912 E1.95462
G1 X137.929 Y75.84 E1.98583
G1 X137.987 Y76.701 E2.01453
G1 X137.996 Y77.021 E2.02518
G1 X138 Y77.33 E2.03546
G1 X137.999 Y142.4 E4.1997
G1 X137.99 Y143.127 E4.22388
G1 X137.939 Y144.064 E4.25509
G1 X137.807 Y144.992 E4.28627
G1 X137.598 Y145.906 E4.31745
G1 X137.311 Y146.799 E4.34865
G1 X136.949 Y147.665 E4.37987
G1 X136.515 Y148.496 E4.41105
G1 X136.011 Y149.287 E4.44224
G1 X135.442 Y150.032 E4.47342
G1 X134.811 Y150.727 E4.50464
G1 X134.124 Y151.365 E4.53583
G1 X133.385 Y151.942 E4.56701
G1 X132.599 Y152.454 E4.59821
G1 X131.773 Y152.897 E4.62939
G1 X130.911 Y153.269 E4.66061
G1 X130.022 Y153.565 E4.69178
G1 X129.11 Y153.785 E4.72298
G1 X128.183 Y153.926 E4.75417
G1 X127.299 Y153.987 E4.78364
G1 X126.978 Y153.996 E4.79432
G1 X126.67 Y154 E4.80456
G1 X93.565 Y153.999 E5.90564
G1 X92.867 Y153.99 E5.92886
G1 X91.931 Y153.938 E5.96004
G1 X91.002 Y153.806 E5.99125
G1 X90.088 Y153.596 E6.02244
G1 X89.195 Y153.309 E6.05364
G1 X88.33 Y152.946 E6.08484
G1 X87.499 Y152.512 E6.11602
G1 X86.708 Y152.008 E6.14721
G1 X85.963 Y151.438 E6.17841
G1 X85.269 Y150.807 E6.20961
G1 X84.632 Y150.12 E6.24077
G1 X84.055 Y149.38 E6.27198
G1 X83.543 Y148.594 E6.30318
G1 X83.1 Y147.767 E6.33438
G1 X82.729 Y146.906 E6.36557
G1 X82.433 Y146.016 E6.39676
G1 X82.214 Y145.104 E6.42796
G1 X82.073 Y144.177 E6.45915
G1 X82.013 Y143.288 E6.48878
G1 X82.004 Y142.955 E6.49986
G1 X82 Y142.658 E6.50974
G1 X82.001 Y77.525 E8.67607
G1 X82.01 Y76.86 E8.69819
G1 X82.063 Y75.924 E8.72937
G1 X82.195 Y74.995 E8.76058
G1 X82.406 Y74.081 E8.79178
G1 X82.694 Y73.189 E8.82296
G1 X83.057 Y72.324 E8.85416
G1 X83.492 Y71.493 E8.88536
G1 X83.996 Y70.703 E8.91652
G1 X84.566 Y69.958 E8.94772
G0 F6000 X84.961 Y70.111
G1 F1200 X85.589 Y69.439 E8.97831
G1 X86.274 Y68.823 E9.00895
G1 X87.01 Y68.27 E9.03957
G1 X87.791 Y67.782 E9.0702
G1 X88.611 Y67.364 E9.10082
G1 X89.465 Y67.019 E9.13145
G1 X90.345 Y66.749 E9.16207
G1 X91.245 Y66.557 E9.19267
G1 X92.159 Y66.443 E9.22331
G1 X92.712 Y66.413 E9.24173
G1 X93.033 Y66.404 E9.25241
G1 X93.33 Y66.4 E9.26229
G1 X126.293 Y66.4 E10.35864
G1 X127.143 Y66.411 E10.38692
G1 X128.062 Y66.464 E10.41753
G1 X128.973 Y66.597 E10.44815
G1 X129.869 Y66.808 E10.47877
G1 X130.743 Y67.096 E10.50938
G1 X131.59 Y67.459 E10.54003
G1 X132.401 Y67.894 E10.57064
G1 X133.171 Y68.398 E10.60124
G1 X133.895 Y68.967 E10.63187
G1 X134.567 Y69.597 E10.66251
G1 X135.182 Y70.282 E10.69313
G1 X135.735 Y71.018 E10.72375
G1 X136.222 Y71.799 E10.75436
G1 X136.639 Y72.62 E10.78499
G1 X136.984 Y73.474 E10.81562
G1 X137.253 Y74.354 E10.84623
G1 X137.445 Y75.255 E10.87687
G1 X137.558 Y76.168 E10.90746
G1 X137.587 Y76.712 E10.92558
G1 X137.596 Y77.032 E10.93623
G1 X137.6 Y77.33 E10.94614
G1 X137.599 Y142.395 E13.11021
G1 X137.59 Y143.122 E13.1344
G1 X137.539 Y144.041 E13.16501
G1 X137.408 Y144.953 E13.19565
G1 X137.198 Y145.849 E13.22626
G1 X136.912 Y146.724 E13.25688
G1 X136.551 Y147.571 E13.2875
G1 X136.117 Y148.383 E13.31813
G1 X135.615 Y149.155 E13.34875
G1 X135.047 Y149.88 E13.37939
G1 X134.419 Y150.553 E13.41
G1 X133.735 Y151.169 E13.44062
G1 X133 Y151.723 E13.47123
G1 X132.22 Y152.212 E13.50185
G1 X131.4 Y152.631 E13.53248
G1 X130.547 Y152.977 E13.56309
G1 X129.667 Y153.248 E13.59372
G1 X128.767 Y153.441 E13.62433
G1 X127.853 Y153.556 E13.65497
G1 X127.288 Y153.587 E13.67379
G1 X126.967 Y153.596 E13.68448
G1 X126.67 Y153.6 E13.69435
G1 X93.57 Y153.599 E14.79526
G1 X92.872 Y153.59 E14.81848
G1 X91.953 Y153.538 E14.8491
G1 X91.042 Y153.407 E14.87971
G1 X90.146 Y153.197 E14.91032
G1 X89.271 Y152.91 E14.94095
G1 X88.424 Y152.548 E14.97158
G1 X87.612 Y152.114 E15.0022
G1 X86.841 Y151.612 E15.0328
G1 X86.116 Y151.044 E15.06344
G1 X85.443 Y150.415 E15.09408
G1 X84.828 Y149.731 E15.12467
G1 X84.274 Y148.996 E15.15528
G1 X83.786 Y148.215 E15.18591
G1 X83.367 Y147.395 E15.21654
G1 X83.021 Y146.542 E15.24716
G1 X82.751 Y145.662 E15.27777
G1 X82.558 Y144.761 E15.30842
G1 X82.444 Y143.848 E15.33902
G1 X82.413 Y143.277 E15.35804
G1 X82.404 Y142.944 E15.36912
G1 X82.4 Y142.658 E15.37863
G1 X82.401 Y77.531 E17.54477
G1 X82.41 Y76.866 E17.56689
G1 X82.462 Y75.946 E17.59753
G1 X82.594 Y75.035 E17.62815
G1 X82.805 Y74.139 E17.65877
G1 X83.092 Y73.264 E17.6894
G1 X83.455 Y72.418 E17.72001
G1 X83.889 Y71.606 E17.75064
G1 X84.392 Y70.835 E17.78126
G1 X84.961 Y70.111 E17.81188
G0 F6000 X85.355 Y70.267
G1 F1200 X85.981 Y69.617 E17.8419
G1 X86.662 Y69.024 E17.87193
G1 X87.394 Y68.494 E17.90199
G1 X88.169 Y68.031 E17.93202
G1 X88.982 Y67.638 E17.96205
G1 X89.827 Y67.318 E17.9921
G1 X90.696 Y67.075 E18.02211
G1 X91.584 Y66.909 E18.05216
G1 X92.723 Y66.813 E18.09018
G1 X93.044 Y66.804 E18.10086
G1 X93.33 Y66.8 E18.11037
G1 X126.293 Y66.8 E19.20673
G1 X127.137 Y66.811 E19.2348
G1 X128.039 Y66.864 E19.26485
G1 X128.932 Y66.996 E19.29488
G1 X129.81 Y67.207 E19.32491
G1 X130.666 Y67.495 E19.35495
G1 X131.493 Y67.857 E19.38498
G1 X132.285 Y68.292 E19.41503
G1 X133.036 Y68.794 E19.44507
G1 X133.739 Y69.361 E19.47511
G1 X134.389 Y69.988 E19.50515
G1 X134.981 Y70.67 E19.53519
G1 X135.511 Y71.401 E19.56522
G1 X135.973 Y72.177 E19.59526
G1 X136.366 Y72.99 E19.62529
G1 X136.684 Y73.835 E19.65532
G1 X136.927 Y74.705 E19.68536
G1 X137.092 Y75.593 E19.7154
G1 X137.187 Y76.723 E19.75312
G1 X137.196 Y77.043 E19.76377
G1 X137.2 Y77.33 E19.77332
G1 X137.199 Y142.39 E21.93722
G1 X137.19 Y143.117 E21.9614
G1 X137.139 Y144.019 E21.99145
G1 X137.008 Y144.913 E22.0215
G1 X136.799 Y145.791 E22.05152
G1 X136.513 Y146.648 E22.08157
G1 X136.152 Y147.476 E22.11161
G1 X135.72 Y148.268 E22.14162
G1 X135.219 Y149.02 E22.17167
G1 X134.653 Y149.724 E22.20172
G1 X134.028 Y150.375 E22.23173
G1 X133.347 Y150.969 E22.26179
G1 X132.616 Y151.5 E22.29184
G1 X131.842 Y151.964 E22.32185
G1 X131.029 Y152.358 E22.3519
G1 X130.185 Y152.678 E22.38192
G1 X129.315 Y152.923 E22.41199
G1 X128.428 Y153.089 E22.442
G1 X127.277 Y153.187 E22.48042
G1 X126.956 Y153.196 E22.4911
G1 X126.67 Y153.2 E22.50062
G1 X93.575 Y153.199 E23.60136
G1 X92.877 Y153.19 E23.62458
G1 X91.976 Y153.139 E23.65459
G1 X91.082 Y153.007 E23.68465
G1 X90.204 Y152.798 E23.71467
G1 X89.347 Y152.511 E23.74473
G1 X88.52 Y152.15 E23.77474
G1 X87.727 Y151.717 E23.80479
G1 X86.976 Y151.216 E23.83482
G1 X86.272 Y150.65 E23.86486
G1 X85.621 Y150.024 E23.8949
G1 X85.028 Y149.343 E23.92493
G1 X84.498 Y148.612 E23.95497
G1 X84.034 Y147.837 E23.98501
G1 X83.64 Y147.024 E24.01506
G1 X83.32 Y146.18 E24.04508
G1 X83.076 Y145.31 E24.07513
G1 X82.91 Y144.422 E24.10518
G1 X82.813 Y143.267 E24.14373
G1 X82.804 Y142.934 E24.15481
G1 X82.8 Y142.658 E24.16399
G1 X82.801 Y77.536 E26.32996
G1 X82.81 Y76.871 E26.35208
G1 X82.862 Y75.969 E26.38213
G1 X82.994 Y75.076 E26.41215
G1 X83.204 Y74.198 E26.44218
G1 X83.491 Y73.341 E26.47224
G1 X83.853 Y72.514 E26.50226
G1 X84.286 Y71.722 E26.53228
G1 X84.788 Y70.971 E26.56233
G1 X85.355 Y70.267 E26.59239
G1 F1500 E20.09239
;MESH:WaterCover (SensorHat).stl
G0 F6000 X103.909 Y96.913
G0 X102.368 Y95.879
G0 X101.598 Y100.214
G0 X101.598 Y101.786
G0 X101.889 Y103.331
G0 X102.462 Y104.796
G0 X103.298 Y106.13
G0 X104.365 Y107.283
G0 X105.629 Y108.22
G0 X106.776 Y108.775
G0 X110.177 Y109.998
;TYPE:WALL-INNER
G1 F1500 E26.59239
G1 F1200 X110.737 Y109.97 E26.61104
G1 X111.291 Y109.907 E26.62959
G1 X111.844 Y109.81 E26.64826
G1 X112.353 Y109.687 E26.66568
G1 X112.887 Y109.525 E26.68424
G1 X113.413 Y109.328 E26.70292
G1 X113.924 Y109.1 E26.72153
G1 X114.418 Y108.841 E26.74008
G1 X114.899 Y108.552 E26.75875
G1 X115.387 Y108.21 E26.77857
G1 X115.798 Y107.884 E26.79601
G1 X116.213 Y107.512 E26.81455
G1 X116.607 Y107.113 E26.8332
G1 X116.974 Y106.689 E26.85185
G1 X117.314 Y106.245 E26.87045
G1 X117.626 Y105.78 E26.88908
G1 X117.909 Y105.297 E26.9077
G1 X118.16 Y104.797 E26.9263
G1 X118.381 Y104.282 E26.94494
G1 X118.568 Y103.755 E26.96354
G1 X118.724 Y103.217 E26.98217
G1 X118.844 Y102.669 E27.00083
G1 X118.931 Y102.118 E27.01939
G1 X118.981 Y101.572 E27.03762
G1 X118.983 Y101.559 E27.03806
G1 X119 Y101 E27.05666
G1 X118.983 Y100.441 E27.07526
G1 X118.931 Y99.882 E27.09393
G1 X118.844 Y99.331 E27.11249
G1 X118.724 Y98.783 E27.13115
G1 X118.568 Y98.245 E27.14978
G1 X118.381 Y97.718 E27.16838
G1 X118.16 Y97.203 E27.18702
G1 X117.909 Y96.703 E27.20562
G1 X117.626 Y96.22 E27.22424
G1 X117.314 Y95.755 E27.24287
G1 X116.974 Y95.311 E27.26147
G1 X116.607 Y94.887 E27.28012
G1 X116.213 Y94.488 E27.29877
G1 X115.796 Y94.116 E27.31736
G1 X115.331 Y93.748 E27.33708
G1 X114.897 Y93.448 E27.35463
G1 X114.418 Y93.159 E27.37323
G1 X113.924 Y92.9 E27.39178
G1 X113.413 Y92.672 E27.4104
G1 X112.887 Y92.475 E27.42908
G1 X112.351 Y92.313 E27.4477
G1 X111.808 Y92.183 E27.46627
G1 X111.268 Y92.091 E27.48449
G1 X111.256 Y92.088 E27.4849
G1 X110.697 Y92.026 E27.50361
G1 X110.103 Y92.001 E27.52338
G1 X109.544 Y92.011 E27.54198
G1 X108.985 Y92.056 E27.56063
G1 X108.431 Y92.138 E27.57926
G1 X107.884 Y92.252 E27.59784
G1 X107.378 Y92.39 E27.61529
G1 X106.849 Y92.569 E27.63386
G1 X106.33 Y92.782 E27.65252
G1 X105.826 Y93.027 E27.67116
G1 X105.339 Y93.301 E27.68974
G1 X104.87 Y93.605 E27.70833
G1 X104.42 Y93.938 E27.72695
G1 X103.991 Y94.299 E27.7456
G1 X103.586 Y94.685 E27.76421
G1 X103.206 Y95.098 E27.78288
G1 X102.852 Y95.53 E27.80145
G1 X102.527 Y95.985 E27.82005
G1 X102.23 Y96.459 E27.83865
G1 X101.962 Y96.951 E27.85729
G1 X101.725 Y97.46 E27.87596
G1 X101.522 Y97.981 E27.89456
G1 X101.349 Y98.513 E27.91317
G1 X101.212 Y99.057 E27.93183
G1 X101.112 Y99.594 E27.94999
G1 X101.109 Y99.606 E27.9504
G1 X101.04 Y100.162 E27.96904
G1 X101.04 Y100.173 E27.9694
G1 X101.004 Y100.719 E27.9876
G1 X101.004 Y101.281 E28.0063
G1 X101.04 Y101.838 E28.02486
G1 X101.109 Y102.394 E28.0435
G1 X101.212 Y102.943 E28.06207
G1 X101.349 Y103.487 E28.08073
G1 X101.522 Y104.019 E28.09934
G1 X101.725 Y104.54 E28.11794
G1 X101.962 Y105.049 E28.13661
G1 X102.23 Y105.541 E28.15525
G1 X102.527 Y106.015 E28.17385
G1 X102.852 Y106.47 E28.19245
G1 X103.206 Y106.902 E28.21102
G1 X103.586 Y107.315 E28.22969
G1 X103.991 Y107.701 E28.2483
G1 X104.42 Y108.062 E28.26695
G1 X104.87 Y108.395 E28.28557
G1 X105.339 Y108.699 E28.30416
G1 X105.826 Y108.973 E28.32274
G1 X106.33 Y109.218 E28.34138
G1 X106.849 Y109.431 E28.36004
G1 X107.379 Y109.61 E28.37864
G1 X107.92 Y109.756 E28.39728
G1 X108.467 Y109.868 E28.41585
G1 X109.021 Y109.948 E28.43447
G1 X109.582 Y109.991 E28.45318
G1 X110.177 Y109.998 E28.47297
G0 F6000 X110.169 Y109.598
G1 F1200 X110.704 Y109.571 E28.49079
G1 X111.234 Y109.511 E28.50853
G1 X111.762 Y109.418 E28.52636
G1 X112.248 Y109.301 E28.54299
G1 X112.759 Y109.146 E28.56075
G1 X113.261 Y108.958 E28.57858
G1 X113.749 Y108.74 E28.59636
G1 X114.222 Y108.492 E28.61412
G1 X114.681 Y108.216 E28.63193
G1 X115.148 Y107.889 E28.6509
G1 X115.54 Y107.578 E28.66754
G1 X115.937 Y107.222 E28.68527
G1 X116.313 Y106.841 E28.70308
G1 X116.664 Y106.436 E28.7209
G1 X116.989 Y106.012 E28.73867
G1 X117.287 Y105.567 E28.75648
G1 X117.557 Y105.106 E28.77425
G1 X117.797 Y104.628 E28.79204
G1 X118.008 Y104.136 E28.80985
G1 X118.187 Y103.632 E28.82764
G1 X118.336 Y103.118 E28.84544
G1 X118.451 Y102.595 E28.86325
G1 X118.534 Y102.068 E28.88099
G1 X118.584 Y101.534 E28.89883
G1 X118.6 Y101 E28.9166
G1 X118.584 Y100.466 E28.93437
G1 X118.534 Y99.932 E28.95221
G1 X118.451 Y99.405 E28.96995
G1 X118.336 Y98.882 E28.98776
G1 X118.187 Y98.368 E29.00556
G1 X118.008 Y97.864 E29.02335
G1 X117.797 Y97.372 E29.04116
G1 X117.557 Y96.894 E29.05895
G1 X117.287 Y96.433 E29.07671
G1 X116.989 Y95.988 E29.09453
G1 X116.664 Y95.564 E29.1123
G1 X116.313 Y95.159 E29.13012
G1 X115.937 Y94.778 E29.14793
G1 X115.539 Y94.422 E29.16569
G1 X115.093 Y94.07 E29.18458
G1 X114.68 Y93.784 E29.20129
G1 X114.222 Y93.508 E29.21908
G1 X113.749 Y93.26 E29.23684
G1 X113.261 Y93.042 E29.25462
G1 X112.759 Y92.854 E29.27245
G1 X112.247 Y92.699 E29.29024
G1 X111.727 Y92.575 E29.30802
G1 X111.2 Y92.484 E29.32581
G1 X110.667 Y92.425 E29.34364
G1 X110.098 Y92.401 E29.36258
G1 X109.564 Y92.411 E29.38035
G1 X109.03 Y92.454 E29.39817
G1 X108.501 Y92.532 E29.41595
G1 X107.978 Y92.641 E29.43372
G1 X107.495 Y92.773 E29.45037
G1 X106.989 Y92.944 E29.46814
G1 X106.493 Y93.147 E29.48596
G1 X106.012 Y93.381 E29.50375
G1 X105.546 Y93.643 E29.52154
G1 X105.098 Y93.934 E29.5393
G1 X104.668 Y94.252 E29.55709
G1 X104.258 Y94.597 E29.57491
G1 X103.871 Y94.966 E29.5927
G1 X103.508 Y95.36 E29.61052
G1 X103.17 Y95.773 E29.62827
G1 X102.859 Y96.208 E29.64605
G1 X102.575 Y96.661 E29.66384
G1 X102.319 Y97.131 E29.68164
G1 X102.093 Y97.617 E29.69946
G1 X101.899 Y98.115 E29.71724
G1 X101.734 Y98.624 E29.73504
G1 X101.603 Y99.143 E29.75284
G1 X101.504 Y99.668 E29.77061
G1 X101.438 Y100.199 E29.78841
G1 X101.404 Y100.732 E29.80617
G1 X101.404 Y101.268 E29.824
G1 X101.438 Y101.801 E29.84176
G1 X101.504 Y102.332 E29.85956
G1 X101.603 Y102.857 E29.87733
G1 X101.734 Y103.376 E29.89513
G1 X101.899 Y103.885 E29.91293
G1 X102.093 Y104.383 E29.9307
G1 X102.319 Y104.869 E29.94853
G1 X102.575 Y105.339 E29.96633
G1 X102.859 Y105.792 E29.98411
G1 X103.17 Y106.227 E30.0019
G1 X103.508 Y106.64 E30.01965
G1 X103.871 Y107.034 E30.03747
G1 X104.258 Y107.403 E30.05525
G1 X104.668 Y107.748 E30.07307
G1 X105.098 Y108.066 E30.09086
G1 X105.546 Y108.357 E30.10863
G1 X106.012 Y108.619 E30.12641
G1 X106.493 Y108.853 E30.1442
G1 X106.989 Y109.056 E30.16203
G1 X107.495 Y109.227 E30.17979
G1 X108.012 Y109.367 E30.19761
G1 X108.536 Y109.474 E30.21539
G1 X109.065 Y109.55 E30.23317
G1 X109.6 Y109.591 E30.25102
G1 X110.169 Y109.598 E30.26994
G0 F6000 X110.161 Y109.198
;TYPE:WALL-OUTER
G1 F1200 X110.671 Y109.172 E30.28693
G1 X111.177 Y109.115 E30.30386
G1 X111.68 Y109.026 E30.32085
G1 X112.143 Y108.915 E30.33669
G1 X112.631 Y108.767 E30.35365
G1 X113.109 Y108.588 E30.37063
G1 X113.574 Y108.38 E30.38757
G1 X114.026 Y108.143 E30.40454
G1 X114.463 Y107.88 E30.42151
G1 X114.909 Y107.568 E30.43961
G1 X115.282 Y107.272 E30.45545
G1 X115.661 Y106.932 E30.47238
G1 X116.019 Y106.569 E30.48934
G1 X116.354 Y106.183 E30.50634
G1 X116.664 Y105.779 E30.52328
G1 X116.948 Y105.355 E30.54025
G1 X117.205 Y104.915 E30.5572
G1 X117.434 Y104.459 E30.57417
G1 X117.635 Y103.99 E30.59114
G1 X117.806 Y103.509 E30.60812
G1 X117.948 Y103.019 E30.62509
G1 X118.058 Y102.521 E30.64205
G1 X118.137 Y102.018 E30.65899
G1 X118.185 Y101.509 E30.67599
G1 X118.2 Y101 E30.69293
G1 X118.185 Y100.491 E30.70986
G1 X118.137 Y99.982 E30.72687
G1 X118.058 Y99.479 E30.7438
