;FLAVOR:Marlin
;TIME:22650
;Filament used: 21.3423m
;Layer height: 0.16
;MINX:49
;MINY:49
;MINZ:0.2
;MAXX:171
;MAXY:171
;MAXZ:9.88
;Generated with Cura_SteamEngine master
M140 S60
M105
M190 S60
M104 S200
M105
M109 S200
M82 ;absolute extrusion mode
; Ender 3 Custom Start G-code
G92 E0 ; Reset Extruder
G28 ; Home all axes
G1 Z2.0 F3000 ; Move Z Axis up little to prevent scratching of Heat Bed
G1 X0.1 Y20 Z0.3 F5000.0 ; Move to start position
G1 X0.1 Y200.0 Z0.3 F1500.0 E15 ; Draw the first line
G1 X0.4 Y200.0 Z0.3 F5000.0 ; Move to side a little
G1 X0.4 Y20 Z0.3 F1500.0 E30 ; Draw the second line
G92 E0 ; Reset Extruder
G1 Z2.0 F3000 ; Move Z Axis up little to prevent scratching of Heat Bed
G1 X5 Y20 Z0.3 F5000.0 ; Move over to prevent blob squish
G92 E0
G92 E0
G1 F1500 E-6.5
;LAYER_COUNT:51
;LAYER:0
M107
G0 F6000 X53.605 Y53.783 Z0.2
;TYPE:SKIRT
G1 F1500 E0
G1 F1200 X54.288 Y53.141 E0.03118
G1 X55.23 Y52.414 E0.07075
G1 X55.956 Y51.915 E0.10005
G1 X56.488 Y51.562 E0.12129
G1 X57.11 Y51.159 E0.14594
G1 X57.918 Y50.683 E0.17713
G1 X58.764 Y50.278 E0.20833
G1 X59.641 Y49.946 E0.23952
G1 X60.556 Y49.687 E0.27115
G1 X60.902 Y49.608 E0.28295
G1 X61.493 Y49.482 E0.30305
G1 X62.17 Y49.347 E0.32601
G1 X63.031 Y49.189 E0.35512
G1 X64.341 Y49.03 E0.39901
G1 X64.899 Y49.009 E0.41759
G1 X65.667 Y49 E0.44313
G1 X159.293 Y49 E3.55715
G1 X160.149 Y49.011 E3.58562
G1 X161.085 Y49.065 E3.6168
G1 X162.013 Y49.197 E3.64798
G1 X162.927 Y49.409 E3.67918
G1 X163.819 Y49.698 E3.71037
G1 X164.684 Y50.061 E3.74157
G1 X165.514 Y50.497 E3.77275
G1 X166.305 Y51.002 E3.80397
G1 X167.049 Y51.573 E3.83516
G1 X167.742 Y52.205 E3.86636
G1 X168.379 Y52.893 E3.89754
G1 X168.954 Y53.634 E3.92874
G1 X169.465 Y54.42 E3.95992
G1 X169.907 Y55.248 E3.99114
G1 X170.276 Y56.11 E4.02232
G1 X170.571 Y57 E4.05351
G1 X170.789 Y57.912 E4.0847
G1 X170.929 Y58.84 E4.11591
G1 X170.986 Y59.692 E4.14431
G1 X170.995 Y60.003 E4.15466
G1 X171 Y60.321 E4.16524
G1 X170.999 Y159.4 E7.46062
G1 X170.99 Y160.127 E7.4848
G1 X170.939 Y161.064 E7.51601
G1 X170.807 Y161.992 E7.54719
G1 X170.598 Y162.906 E7.57837
G1 X170.311 Y163.799 E7.60957
G1 X169.949 Y164.665 E7.64079
G1 X169.515 Y165.496 E7.67197
G1 X169.011 Y166.287 E7.70316
G1 X168.442 Y167.032 E7.73434
G1 X167.811 Y167.727 E7.76557
G1 X167.124 Y168.365 E7.79675
G1 X166.385 Y168.942 E7.82793
G1 X165.599 Y169.454 E7.85913
G1 X164.773 Y169.897 E7.89031
G1 X163.911 Y170.269 E7.92153
G1 X163.022 Y170.565 E7.9527
G1 X162.11 Y170.785 E7.9839
G1 X161.183 Y170.926 E8.01509
G1 X160.299 Y170.987 E8.04456
G1 X159.978 Y170.996 E8.05524
G1 X159.67 Y171 E8.06548
G1 X60.565 Y170.999 E11.36173
G1 X59.867 Y170.99 E11.38495
G1 X58.931 Y170.938 E11.41613
G1 X58.002 Y170.806 E11.44734
G1 X57.088 Y170.596 E11.47853
G1 X56.195 Y170.309 E11.50973
G1 X55.33 Y169.946 E11.54093
G1 X54.499 Y169.512 E11.57211
G1 X53.708 Y169.008 E11.6033
G1 X52.963 Y168.438 E11.6345
G1 X52.269 Y167.807 E11.6657
G1 X51.632 Y167.12 E11.69686
G1 X51.055 Y166.38 E11.72807
G1 X50.543 Y165.594 E11.75927
G1 X50.1 Y164.767 E11.79047
G1 X49.729 Y163.906 E11.82166
G1 X49.433 Y163.016 E11.85285
G1 X49.214 Y162.104 E11.88405
G1 X49.073 Y161.177 E11.91523
G1 X49.013 Y160.288 E11.94487
G1 X49.004 Y159.955 E11.95595
G1 X49 Y159.658 E11.96583
G1 X49.001 Y65.537 E15.09631
G1 X49.012 Y64.827 E15.11992
G1 X49.067 Y63.89 E15.15114
G1 X49.19 Y63.023 E15.18027
G1 X49.343 Y62.193 E15.20834
G1 X49.496 Y61.43 E15.23422
G1 X49.637 Y60.775 E15.25651
G1 X49.874 Y59.867 E15.28772
G1 X50.186 Y58.983 E15.3189
G1 X50.573 Y58.129 E15.35008
G1 X51.008 Y57.35 E15.37976
G1 X51.213 Y57.021 E15.39265
G1 X51.553 Y56.498 E15.4134
G1 X52.002 Y55.828 E15.44022
G1 X52.414 Y55.23 E15.46438
G1 X52.978 Y54.481 E15.49556
G1 X53.605 Y53.783 E15.52677
G0 F6000 X53.914 Y54.039
G1 F1200 X54.588 Y53.411 E15.55741
G1 X55.457 Y52.743 E15.59386
G1 X56.178 Y52.248 E15.62295
G1 X56.705 Y51.898 E15.64399
G1 X57.327 Y51.495 E15.66864
G1 X58.121 Y51.028 E15.69928
G1 X58.952 Y50.632 E15.7299
G1 X59.814 Y50.31 E15.7605
G1 X60.648 Y50.076 E15.78931
G1 X60.986 Y49.999 E15.80084
G1 X61.571 Y49.875 E15.82073
G1 X62.418 Y49.707 E15.84945
G1 X63.103 Y49.582 E15.87261
G1 X64.365 Y49.429 E15.91489
G1 X64.904 Y49.409 E15.93283
G1 X65.667 Y49.4 E15.95821
G1 X159.293 Y49.4 E19.07223
G1 X160.143 Y49.411 E19.1005
G1 X161.062 Y49.464 E19.13112
G1 X161.973 Y49.597 E19.16174
G1 X162.869 Y49.808 E19.19235
G1 X163.743 Y50.096 E19.22296
G1 X164.59 Y50.459 E19.25361
G1 X165.401 Y50.894 E19.28422
G1 X166.171 Y51.398 E19.31483
G1 X166.895 Y51.967 E19.34546
G1 X167.567 Y52.597 E19.37609
G1 X168.182 Y53.282 E19.40671
G1 X168.735 Y54.018 E19.43733
G1 X169.222 Y54.799 E19.46794
G1 X169.639 Y55.62 E19.49857
G1 X169.984 Y56.474 E19.5292
G1 X170.253 Y57.354 E19.55981
G1 X170.445 Y58.255 E19.59045
G1 X170.558 Y59.168 E19.62105
G1 X170.587 Y59.703 E19.63887
G1 X170.596 Y60.014 E19.64922
G1 X170.6 Y60.321 E19.65943
G1 X170.599 Y159.395 E22.95464
G1 X170.59 Y160.122 E22.97883
G1 X170.539 Y161.041 E23.00944
G1 X170.408 Y161.953 E23.04008
G1 X170.198 Y162.849 E23.07069
G1 X169.912 Y163.724 E23.10131
G1 X169.551 Y164.571 E23.13193
G1 X169.117 Y165.383 E23.16256
G1 X168.615 Y166.155 E23.19318
G1 X168.047 Y166.88 E23.22382
G1 X167.419 Y167.553 E23.25443
G1 X166.735 Y168.169 E23.28505
G1 X166 Y168.723 E23.31566
G1 X165.22 Y169.212 E23.34628
G1 X164.4 Y169.631 E23.37691
G1 X163.547 Y169.977 E23.40752
G1 X162.667 Y170.248 E23.43815
G1 X161.767 Y170.441 E23.46876
G1 X160.853 Y170.556 E23.4994
G1 X160.288 Y170.587 E23.51822
G1 X159.967 Y170.596 E23.5289
G1 X159.67 Y170.6 E23.53878
G1 X60.57 Y170.599 E26.83486
G1 X59.872 Y170.59 E26.85808
G1 X58.953 Y170.538 E26.8887
G1 X58.042 Y170.407 E26.91931
G1 X57.146 Y170.197 E26.94992
G1 X56.271 Y169.91 E26.98054
G1 X55.424 Y169.548 E27.01118
G1 X54.612 Y169.114 E27.0418
G1 X53.841 Y168.612 E27.0724
G1 X53.116 Y168.044 E27.10304
G1 X52.443 Y167.415 E27.13367
G1 X51.828 Y166.731 E27.16427
G1 X51.274 Y165.996 E27.19488
G1 X50.786 Y165.215 E27.22551
G1 X50.367 Y164.395 E27.25614
G1 X50.021 Y163.542 E27.28675
G1 X49.751 Y162.662 E27.31737
G1 X49.558 Y161.761 E27.34802
G1 X49.444 Y160.848 E27.37862
G1 X49.413 Y160.277 E27.39764
G1 X49.404 Y159.944 E27.40872
G1 X49.4 Y159.658 E27.41823
G1 X49.401 Y65.543 E30.54851
G1 X49.412 Y64.833 E30.57213
G1 X49.466 Y63.914 E30.60275
G1 X49.583 Y63.095 E30.63026
G1 X49.735 Y62.271 E30.65813
G1 X49.887 Y61.514 E30.68381
G1 X50.028 Y60.859 E30.7061
G1 X50.261 Y59.968 E30.73673
G1 X50.57 Y59.101 E30.76734
G1 X50.953 Y58.264 E30.79796
G1 X51.349 Y57.558 E30.82488
G1 X51.549 Y57.238 E30.83743
G1 X51.886 Y56.72 E30.85798
G1 X52.331 Y56.055 E30.8846
G1 X52.743 Y55.457 E30.90875
G1 X53.298 Y54.722 E30.93938
G1 X53.914 Y54.039 E30.96997
G0 F6000 X54.224 Y54.295
G1 F1200 X54.887 Y53.682 E31.00001
G1 X55.684 Y53.073 E31.03337
G1 X56.399 Y52.581 E31.06224
G1 X56.923 Y52.234 E31.08314
G1 X57.545 Y51.831 E31.10779
G1 X58.324 Y51.374 E31.13783
G1 X59.14 Y50.987 E31.16787
G1 X59.987 Y50.675 E31.19789
G1 X60.74 Y50.466 E31.22388
G1 X61.069 Y50.39 E31.23511
G1 X61.649 Y50.267 E31.25483
G1 X62.49 Y50.101 E31.28334
G1 X63.175 Y49.976 E31.3065
G1 X64.389 Y49.829 E31.34717
G1 X64.909 Y49.809 E31.36448
G1 X65.667 Y49.8 E31.3897
G1 X159.293 Y49.8 E34.50371
G1 X160.137 Y49.811 E34.53178
G1 X161.039 Y49.864 E34.56183
G1 X161.932 Y49.996 E34.59186
G1 X162.81 Y50.207 E34.62189
G1 X163.666 Y50.495 E34.65193
G1 X164.493 Y50.857 E34.68196
G1 X165.285 Y51.292 E34.71201
G1 X166.036 Y51.794 E34.74206
G1 X166.739 Y52.361 E34.7721
G1 X167.389 Y52.988 E34.80213
G1 X167.981 Y53.67 E34.83217
G1 X168.511 Y54.401 E34.8622
G1 X168.973 Y55.177 E34.89224
G1 X169.366 Y55.99 E34.92227
G1 X169.684 Y56.835 E34.9523
G1 X169.927 Y57.705 E34.98235
G1 X170.092 Y58.593 E35.01239
G1 X170.187 Y59.715 E35.04984
G1 X170.196 Y60.026 E35.06019
G1 X170.2 Y60.321 E35.07
G1 X170.199 Y159.39 E38.36505
G1 X170.19 Y160.117 E38.38923
G1 X170.139 Y161.019 E38.41928
G1 X170.008 Y161.913 E38.44933
G1 X169.799 Y162.791 E38.47935
G1 X169.513 Y163.648 E38.5094
G1 X169.152 Y164.476 E38.53944
G1 X168.72 Y165.268 E38.56945
G1 X168.219 Y166.02 E38.5995
G1 X167.653 Y166.724 E38.62955
G1 X167.028 Y167.375 E38.65956
G1 X166.347 Y167.969 E38.68962
G1 X165.616 Y168.5 E38.71967
G1 X164.842 Y168.964 E38.74968
G1 X164.029 Y169.358 E38.77973
G1 X163.185 Y169.678 E38.80975
G1 X162.315 Y169.923 E38.83981
G1 X161.428 Y170.089 E38.86983
G1 X160.277 Y170.187 E38.90825
G1 X159.956 Y170.196 E38.91893
G1 X159.67 Y170.2 E38.92844
G1 X60.575 Y170.199 E42.22436
G1 X59.877 Y170.19 E42.24757
G1 X58.976 Y170.139 E42.27759
G1 X58.082 Y170.007 E42.30765
G1 X57.204 Y169.798 E42.33766
G1 X56.347 Y169.511 E42.36772
G1 X55.52 Y169.15 E42.39774
G1 X54.727 Y168.717 E42.42779
G1 X53.976 Y168.216 E42.45781
G1 X53.272 Y167.65 E42.48786
G1 X52.621 Y167.024 E42.5179
G1 X52.028 Y166.343 E42.54793
G1 X51.498 Y165.612 E42.57796
G1 X51.034 Y164.837 E42.60801
G1 X50.64 Y164.024 E42.63805
G1 X50.32 Y163.18 E42.66808
G1 X50.076 Y162.31 E42.69813
G1 X49.91 Y161.422 E42.72817
G1 X49.813 Y160.267 E42.76673
G1 X49.804 Y159.934 E42.77781
G1 X49.8 Y159.658 E42.78699
G1 X49.801 Y65.549 E45.91706
G1 X49.812 Y64.839 E45.94068
G1 X49.866 Y63.937 E45.97074
G1 X49.977 Y63.167 E45.99661
G1 X50.127 Y62.35 E46.02424
G1 X50.278 Y61.598 E46.04975
G1 X50.419 Y60.943 E46.07203
G1 X50.648 Y60.07 E46.10205
G1 X50.954 Y59.22 E46.1321
G1 X51.333 Y58.4 E46.16215
G1 X51.69 Y57.767 E46.18632
G1 X51.885 Y57.456 E46.19853
G1 X52.219 Y56.942 E46.21891
G1 X52.661 Y56.282 E46.24533
G1 X53.073 Y55.684 E46.26949
G1 X53.617 Y54.964 E46.2995
G1 X54.224 Y54.295 E46.32955
G1 F1500 E39.82955
;MESH:WaterCover (small).stl
G0 F6000 X60.776 Y61.297
G0 X62.338 Y62.338
G0 X63.547 Y61.483
G0 X65.113 Y61.171
G0 X158.818 Y61.182
G0 X159 Y159
;TYPE:WALL-INNER
G1 F1500 E46.32955
G1 F1200 X61 Y159 E49.58904
G1 X61 Y65.095 E52.71233
G1 X61.321 Y63.479 E52.76713
G1 X62.186 Y62.186 E52.81887
G1 X63.479 Y61.321 E52.87061
G1 X65.095 Y61 E52.92541
G1 X159 Y61 E56.0487
G1 X159 Y159 E59.3082
G0 F6000 X159.4 Y159.4
G1 F1200 X60.6 Y159.4 E62.5943
G1 X60.6 Y65.057 E65.73216
G1 X60.945 Y63.322 E65.791
G1 X61.897 Y61.897 E65.848
G1 X63.322 Y60.945 E65.90499
G1 X63.401 Y60.93 E65.90767
G1 X65.057 Y60.6 E65.96383
G1 X159.4 Y60.6 E69.10169
G1 X159.4 Y159.4 E72.38779
G0 F6000 X159.8 Y159.8
;TYPE:WALL-OUTER
G1 F1200 X60.2 Y159.8 E75.7005
G1 X60.2 Y65.019 E78.85293
G1 X60.569 Y63.165 E78.91581
G1 X61.608 Y61.608 E78.97806
G1 X63.165 Y60.569 E79.04032
G1 X65.019 Y60.2 E79.10319
G1 X159.8 Y60.2 E82.25562
G1 X159.8 Y159.8 E85.56833
G0 F6000 X159.53 Y159.53
G0 X158.89 Y158.61
G0 X158.61 Y158.61
;TYPE:SKIN
G1 F1200 X61.39 Y158.61 E88.80188
G1 X61.39 Y65.131 E91.91101
G1 X61.687 Y63.633 E91.9618
G1 X62.467 Y62.467 E92.00846
G1 X63.633 Y61.687 E92.05512
G1 X65.131 Y61.39 E92.10591
G1 X158.61 Y61.39 E95.21504
G1 X158.61 Y158.61 E98.44859
G1 F1500 E91.94859
G0 F6000 X158.89 Y158.61
G0 X158.89 Y61.717
G0 X158.449 Y61.717
G1 F1500 E98.44859
G1 F1200 X158.282 Y61.55 E98.45644
G0 F6000 X157.716 Y61.55
G1 F1200 X158.449 Y62.283 E98.49092
G0 F6000 X158.449 Y62.849
G1 F1200 X157.15 Y61.55 E98.55202
G0 F6000 X156.585 Y61.55
G1 F1200 X158.449 Y63.414 E98.6397
G0 F6000 X158.449 Y63.98
G1 F1200 X156.019 Y61.55 E98.754
G0 F6000 X155.453 Y61.55
G1 F1200 X158.449 Y64.546 E98.89492
G0 F6000 X158.449 Y65.111
G1 F1200 X154.888 Y61.55 E99.06242
G0 F6000 X154.322 Y61.55
G1 F1200 X158.449 Y65.677 E99.25654
G0 F6000 X158.449 Y66.243
G1 F1200 X153.756 Y61.55 E99.47728
G0 F6000 X153.191 Y61.55
G1 F1200 X158.449 Y66.808 E99.7246
G0 F6000 X158.449 Y67.374
G1 F1200 X152.625 Y61.55 E99.99855
G0 F6000 X152.059 Y61.55
G1 F1200 X158.449 Y67.94 E100.29911
G0 F6000 X158.449 Y68.505
G1 F1200 X151.494 Y61.55 E100.62625
G0 F6000 X150.928 Y61.55
G1 F1200 X158.449 Y69.071 E100.98002
G0 F6000 X158.449 Y69.637
G1 F1200 X150.362 Y61.55 E101.36041
G0 F6000 X149.797 Y61.55
G1 F1200 X158.449 Y70.202 E101.76737
G0 F6000 X158.449 Y70.768
G1 F1200 X149.231 Y61.55 E102.20096
G0 F6000 X148.665 Y61.55
G1 F1200 X158.449 Y71.334 E102.66117
G0 F6000 X158.449 Y71.9
G1 F1200 X148.099 Y61.55 E103.148
G0 F6000 X147.534 Y61.55
G1 F1200 X158.449 Y72.465 E103.66141
G0 F6000 X158.449 Y73.031
G1 F1200 X146.968 Y61.55 E104.20144
G0 F6000 X146.402 Y61.55
G1 F1200 X158.449 Y73.597 E104.76809
G0 F6000 X158.449 Y74.162
G1 F1200 X145.837 Y61.55 E105.36132
G0 F6000 X145.271 Y61.55
G1 F1200 X158.449 Y74.728 E105.98117
G0 F6000 X158.449 Y75.294
G1 F1200 X144.705 Y61.55 E106.62765
G0 F6000 X144.14 Y61.55
G1 F1200 X158.449 Y75.859 E107.3007
G0 F6000 X158.449 Y76.425
G1 F1200 X143.574 Y61.55 E108.00038
G0 F6000 X143.008 Y61.55
G1 F1200 X158.449 Y76.991 E108.72667
G0 F6000 X158.449 Y77.556
G1 F1200 X142.443 Y61.55 E109.47955
G0 F6000 X141.877 Y61.55
G1 F1200 X158.449 Y78.122 E110.25904
G0 F6000 X158.449 Y78.688
G1 F1200 X141.311 Y61.55 E111.06516
G0 F6000 X140.746 Y61.55
G1 F1200 X158.449 Y79.253 E111.89786
G0 F6000 X158.449 Y79.819
G1 F1200 X140.18 Y61.55 E112.75717
G0 F6000 X139.614 Y61.55
G1 F1200 X158.449 Y80.385 E113.64311
G0 F6000 X158.449 Y80.95
G1 F1200 X139.049 Y61.55 E114.55563
G0 F6000 X138.483 Y61.55
G1 F1200 X158.449 Y81.516 E115.49477
G0 F6000 X158.449 Y82.082
G1 F1200 X137.917 Y61.55 E116.46053
G0 F6000 X137.351 Y61.55
G1 F1200 X158.449 Y82.648 E117.45292
G0 F6000 X158.449 Y83.213
G1 F1200 X136.786 Y61.55 E118.47188
G0 F6000 X136.22 Y61.55
G1 F1200 X158.449 Y83.779 E119.51746
G0 F6000 X158.449 Y84.345
G1 F1200 X135.654 Y61.55 E120.58967
G0 F6000 X135.089 Y61.55
G1 F1200 X158.449 Y84.91 E121.68845
G0 F6000 X158.449 Y85.476
G1 F1200 X134.523 Y61.55 E122.81386
G0 F6000 X133.957 Y61.55
G1 F1200 X158.449 Y86.042 E123.96589
G0 F6000 X158.449 Y86.607
G1 F1200 X133.392 Y61.55 E125.14449
G0 F6000 X132.826 Y61.55
G1 F1200 X158.449 Y87.173 E126.34972
G0 F6000 X158.449 Y87.739
G1 F1200 X132.26 Y61.55 E127.58157
G0 F6000 X131.695 Y61.55
G1 F1200 X158.449 Y88.304 E128.84
G0 F6000 X158.449 Y88.87
G1 F1200 X131.129 Y61.55 E130.12504
G0 F6000 X130.563 Y61.55
G1 F1200 X158.449 Y89.436 E131.43672
G0 F6000 X158.449 Y90.001
G1 F1200 X129.998 Y61.55 E132.77496
G0 F6000 X129.432 Y61.55
G1 F1200 X158.449 Y90.567 E134.13984
G0 F6000 X158.449 Y91.133
G1 F1200 X128.866 Y61.55 E135.53133
G0 F6000 X128.3 Y61.55
G1 F1200 X158.449 Y91.699 E136.94945
G0 F6000 X158.449 Y92.264
G1 F1200 X127.735 Y61.55 E138.39414
G0 F6000 X127.169 Y61.55
G1 F1200 X158.449 Y92.83 E139.86545
G0 F6000 X158.449 Y93.396
G1 F1200 X126.603 Y61.55 E141.36339
G0 F6000 X126.038 Y61.55
G1 F1200 X158.449 Y93.961 E142.88791
G0 F6000 X158.449 Y94.527
G1 F1200 X125.472 Y61.55 E144.43904
G0 F6000 X124.906 Y61.55
G1 F1200 X158.449 Y95.093 E146.0168
G0 F6000 X158.449 Y95.658
G1 F1200 X124.341 Y61.55 E147.62114
G0 F6000 X123.775 Y61.55
G1 F1200 X158.449 Y96.224 E149.2521
G0 F6000 X158.449 Y96.79
G1 F1200 X123.209 Y61.55 E150.90968
G0 F6000 X122.644 Y61.55
G1 F1200 X158.449 Y97.355 E152.59384
G0 F6000 X158.449 Y97.921
G1 F1200 X122.078 Y61.55 E154.30462
G0 F6000 X121.512 Y61.55
G1 F1200 X158.449 Y98.487 E156.04202
G0 F6000 X158.449 Y99.052
G1 F1200 X120.947 Y61.55 E157.806
G0 F6000 X120.381 Y61.55
G1 F1200 X158.449 Y99.618 E159.5966
G0 F6000 X158.449 Y100.184
G1 F1200 X119.815 Y61.55 E161.41383
G0 F6000 X119.25 Y61.55
G1 F1200 X158.449 Y100.749 E163.25763
G0 F6000 X158.449 Y101.315
G1 F1200 X118.684 Y61.55 E165.12805
G0 F6000 X118.118 Y61.55
G1 F1200 X158.449 Y101.881 E167.0251
G0 F6000 X158.449 Y102.447
G1 F1200 X117.552 Y61.55 E168.94877
G0 F6000 X116.987 Y61.55
G1 F1200 X158.449 Y103.012 E170.89901
G0 F6000 X158.449 Y103.578
G1 F1200 X116.421 Y61.55 E172.87588
G0 F6000 X115.855 Y61.55
G1 F1200 X158.449 Y104.144 E174.87937
G0 F6000 X158.449 Y104.709
G1 F1200 X115.29 Y61.55 E176.90944
G0 F6000 X114.724 Y61.55
G1 F1200 X158.449 Y105.275 E178.96613
G0 F6000 X158.449 Y105.841
G1 F1200 X114.158 Y61.55 E181.04944
G0 F6000 X113.593 Y61.55
G1 F1200 X158.449 Y106.406 E183.15933
G0 F6000 X158.449 Y106.972
G1 F1200 X113.027 Y61.55 E185.29584
G0 F6000 X112.461 Y61.55
G1 F1200 X158.449 Y107.538 E187.45898
G0 F6000 X158.449 Y108.103
G1 F1200 X111.896 Y61.55 E189.64869
G0 F6000 X111.33 Y61.55
