;FLAVOR:Marlin
;TIME:6703
;Filament used: 4.18823m
;Layer height: 0.16
;MINX:92
;MINY:76.5
;MINZ:0.2
;MAXX:148
;MAXY:163.5
;MAXZ:11.88
;Generated with Cura_SteamEngine master
M140 S60
M105
M190 S60
M104 S200
M105
M109 S200
M82 ;absolute extrusion mode
; Ender 3 Custom Start G-code
G92 E0 ; Reset Extruder
G28 ; Home all axes
G1 Z2.0 F3000 ; Move Z Axis up little to prevent scratching of Heat Bed
G1 X0.1 Y20 Z0.3 F5000.0 ; Move to start position
G1 X0.1 Y200.0 Z0.3 F1500.0 E15 ; Draw the first line
G1 X0.4 Y200.0 Z0.3 F5000.0 ; Move to side a little
G1 X0.4 Y20 Z0.3 F1500.0 E30 ; Draw the second line
G92 E0 ; Reset Extruder
G1 Z2.0 F3000 ; Move Z Axis up little to prevent scratching of Heat Bed
G1 X5 Y20 Z0.3 F5000.0 ; Move over to prevent blob squish
G92 E0
G92 E0
G1 F1500 E-6.5
;LAYER_COUNT:61
;LAYER:0
M107
G0 F6000 X94.566 Y80.458 Z0.2
;TYPE:SKIRT
G1 F1500 E0
G1 F1200 X95.198 Y79.764 E0.03122
G1 X95.886 Y79.127 E0.0624
G1 X96.626 Y78.551 E0.09359
G1 X97.412 Y78.039 E0.12479
G1 X98.239 Y77.597 E0.15598
G1 X99.101 Y77.227 E0.18718
G1 X99.991 Y76.931 E0.21838
G1 X100.903 Y76.713 E0.24957
G1 X101.83 Y76.572 E0.28075
G1 X102.701 Y76.513 E0.30979
G1 X103.022 Y76.504 E0.32047
G1 X103.33 Y76.5 E0.33071
G1 X136.293 Y76.5 E1.42707
G1 X137.149 Y76.511 E1.45554
G1 X138.085 Y76.565 E1.48672
G1 X139.013 Y76.697 E1.5179
G1 X139.927 Y76.909 E1.54911
G1 X140.819 Y77.198 E1.58029
G1 X141.684 Y77.561 E1.61149
G1 X142.514 Y77.997 E1.64268
G1 X143.305 Y78.502 E1.67389
G1 X144.049 Y79.073 E1.70508
G1 X144.742 Y79.705 E1.73628
G1 X145.379 Y80.393 E1.76746
G1 X145.954 Y81.134 E1.79866
G1 X146.465 Y81.92 E1.82984
G1 X146.907 Y82.748 E1.86106
G1 X147.276 Y83.61 E1.89224
G1 X147.571 Y84.5 E1.92343
G1 X147.789 Y85.412 E1.95462
G1 X147.929 Y86.34 E1.98583
G1 X147.987 Y87.201 E2.01453
G1 X147.996 Y87.521 E2.02518
G1 X148 Y87.83 E2.03546
G1 X147.999 Y151.9 E4.16644
G1 X147.99 Y152.627 E4.19062
G1 X147.939 Y153.564 E4.22183
G1 X147.807 Y154.492 E4.25301
G1 X147.598 Y155.406 E4.28419
G1 X147.311 Y156.299 E4.31539
G1 X146.949 Y157.165 E4.34661
G1 X146.515 Y157.996 E4.37779
G1 X146.011 Y158.787 E4.40898
G1 X145.442 Y159.532 E4.44016
G1 X144.811 Y160.227 E4.47138
G1 X144.124 Y160.865 E4.50257
G1 X143.385 Y161.442 E4.53375
G1 X142.599 Y161.954 E4.56495
G1 X141.773 Y162.397 E4.59613
G1 X140.911 Y162.769 E4.62735
G1 X140.022 Y163.065 E4.65852
G1 X139.11 Y163.285 E4.68972
G1 X138.183 Y163.426 E4.72091
G1 X137.299 Y163.487 E4.75038
G1 X136.978 Y163.496 E4.76106
G1 X136.67 Y163.5 E4.7713
G1 X103.565 Y163.499 E5.87238
G1 X102.867 Y163.49 E5.8956
G1 X101.931 Y163.438 E5.92678
G1 X101.002 Y163.306 E5.95799
G1 X100.088 Y163.096 E5.98918
G1 X99.195 Y162.809 E6.02038
G1 X98.33 Y162.446 E6.05158
G1 X97.499 Y162.012 E6.08276
G1 X96.708 Y161.508 E6.11395
G1 X95.963 Y160.938 E6.14515
G1 X95.269 Y160.307 E6.17635
G1 X94.632 Y159.62 E6.20751
G1 X94.055 Y158.88 E6.23872
G1 X93.543 Y158.094 E6.26992
G1 X93.1 Y157.267 E6.30112
G1 X92.729 Y156.406 E6.33231
G1 X92.433 Y155.516 E6.3635
G1 X92.214 Y154.604 E6.3947
G1 X92.073 Y153.677 E6.42589
G1 X92.013 Y152.788 E6.45552
G1 X92.004 Y152.455 E6.4666
G1 X92 Y152.158 E6.47648
G1 X92.001 Y88.025 E8.60955
G1 X92.01 Y87.36 E8.63167
G1 X92.063 Y86.424 E8.66285
G1 X92.195 Y85.495 E8.69406
G1 X92.406 Y84.581 E8.72526
G1 X92.694 Y83.689 E8.75644
G1 X93.057 Y82.824 E8.78764
G1 X93.492 Y81.993 E8.81884
G1 X93.996 Y81.203 E8.85
G1 X94.566 Y80.458 E8.8812
G0 F6000 X94.961 Y80.611
G1 F1200 X95.589 Y79.939 E8.91179
G1 X96.274 Y79.323 E8.94243
G1 X97.01 Y78.77 E8.97305
G1 X97.791 Y78.282 E9.00368
G1 X98.611 Y77.864 E9.0343
G1 X99.465 Y77.519 E9.06493
G1 X100.345 Y77.249 E9.09555
G1 X101.245 Y77.057 E9.12615
G1 X102.159 Y76.943 E9.15679
G1 X102.712 Y76.913 E9.17521
G1 X103.033 Y76.904 E9.18589
G1 X103.33 Y76.9 E9.19577
G1 X136.293 Y76.9 E10.29212
G1 X137.143 Y76.911 E10.3204
G1 X138.062 Y76.964 E10.35101
G1 X138.973 Y77.097 E10.38163
G1 X139.869 Y77.308 E10.41225
G1 X140.743 Y77.596 E10.44286
G1 X141.59 Y77.959 E10.47351
G1 X142.401 Y78.394 E10.50412
G1 X143.171 Y78.898 E10.53472
G1 X143.895 Y79.467 E10.56535
G1 X144.567 Y80.097 E10.59599
G1 X145.182 Y80.782 E10.62661
G1 X145.735 Y81.518 E10.65723
G1 X146.222 Y82.299 E10.68784
G1 X146.639 Y83.12 E10.71847
G1 X146.984 Y83.974 E10.7491
G1 X147.253 Y84.854 E10.77971
G1 X147.445 Y85.755 E10.81035
G1 X147.558 Y86.668 E10.84094
G1 X147.587 Y87.212 E10.85906
G1 X147.596 Y87.532 E10.86971
G1 X147.6 Y87.83 E10.87962
G1 X147.599 Y151.895 E13.01043
G1 X147.59 Y152.622 E13.03462
G1 X147.539 Y153.541 E13.06523
G1 X147.408 Y154.453 E13.09587
G1 X147.198 Y155.349 E13.12648
G1 X146.912 Y156.224 E13.1571
G1 X146.551 Y157.071 E13.18772
G1 X146.117 Y157.883 E13.21835
G1 X145.615 Y158.655 E13.24897
G1 X145.047 Y159.38 E13.27961
G1 X144.419 Y160.053 E13.31022
G1 X143.735 Y160.669 E13.34084
G1 X143 Y161.223 E13.37145
G1 X142.22 Y161.712 E13.40207
G1 X141.4 Y162.131 E13.4327
G1 X140.547 Y162.477 E13.46331
G1 X139.667 Y162.748 E13.49394
G1 X138.767 Y162.941 E13.52455
G1 X137.853 Y163.056 E13.55519
G1 X137.288 Y163.087 E13.57401
G1 X136.967 Y163.096 E13.58469
G1 X136.67 Y163.1 E13.59457
G1 X103.57 Y163.099 E14.69548
G1 X102.872 Y163.09 E14.7187
G1 X101.953 Y163.038 E14.74932
G1 X101.042 Y162.907 E14.77993
G1 X100.146 Y162.697 E14.81054
G1 X99.271 Y162.41 E14.84117
G1 X98.424 Y162.048 E14.8718
G1 X97.612 Y161.614 E14.90242
G1 X96.841 Y161.112 E14.93302
G1 X96.116 Y160.544 E14.96366
G1 X95.443 Y159.915 E14.9943
G1 X94.828 Y159.231 E15.02489
G1 X94.274 Y158.496 E15.0555
G1 X93.786 Y157.715 E15.08613
G1 X93.367 Y156.895 E15.11676
G1 X93.021 Y156.042 E15.14738
G1 X92.751 Y155.162 E15.17799
G1 X92.558 Y154.261 E15.20864
G1 X92.444 Y153.348 E15.23924
G1 X92.413 Y152.777 E15.25826
G1 X92.404 Y152.444 E15.26934
G1 X92.4 Y152.158 E15.27885
G1 X92.401 Y88.031 E17.41173
G1 X92.41 Y87.366 E17.43385
G1 X92.462 Y86.446 E17.46449
G1 X92.594 Y85.535 E17.49511
G1 X92.805 Y84.639 E17.52573
G1 X93.092 Y83.764 E17.55636
G1 X93.455 Y82.918 E17.58697
G1 X93.889 Y82.106 E17.6176
G1 X94.392 Y81.335 E17.64822
G1 X94.961 Y80.611 E17.67884
G0 F6000 X95.355 Y80.767
G1 F1200 X95.981 Y80.117 E17.70886
G1 X96.662 Y79.524 E17.73889
G1 X97.394 Y78.994 E17.76895
G1 X98.169 Y78.531 E17.79898
G1 X98.982 Y78.138 E17.82901
G1 X99.827 Y77.818 E17.85906
G1 X100.696 Y77.575 E17.88907
G1 X101.584 Y77.409 E17.91912
G1 X102.723 Y77.313 E17.95714
G1 X103.044 Y77.304 E17.96782
G1 X103.33 Y77.3 E17.97733
G1 X136.293 Y77.3 E19.07369
G1 X137.137 Y77.311 E19.10176
G1 X138.039 Y77.364 E19.13181
G1 X138.932 Y77.496 E19.16184
G1 X139.81 Y77.707 E19.19187
G1 X140.666 Y77.995 E19.22191
G1 X141.493 Y78.357 E19.25193
G1 X142.285 Y78.792 E19.28199
G1 X143.036 Y79.294 E19.31203
G1 X143.739 Y79.861 E19.34207
G1 X144.389 Y80.488 E19.37211
G1 X144.981 Y81.17 E19.40215
G1 X145.511 Y81.901 E19.43218
G1 X145.973 Y82.677 E19.46222
G1 X146.366 Y83.49 E19.49225
G1 X146.684 Y84.335 E19.52228
G1 X146.927 Y85.205 E19.55232
G1 X147.092 Y86.093 E19.58236
G1 X147.187 Y87.223 E19.62008
G1 X147.196 Y87.543 E19.63073
G1 X147.2 Y87.83 E19.64028
G1 X147.199 Y151.89 E21.77092
G1 X147.19 Y152.617 E21.7951
G1 X147.139 Y153.519 E21.82515
G1 X147.008 Y154.413 E21.8552
G1 X146.799 Y155.291 E21.88522
G1 X146.513 Y156.148 E21.91527
G1 X146.152 Y156.976 E21.94531
G1 X145.72 Y157.768 E21.97532
G1 X145.219 Y158.52 E22.00537
G1 X144.653 Y159.224 E22.03542
G1 X144.028 Y159.875 E22.06543
G1 X143.347 Y160.469 E22.09549
G1 X142.616 Y161 E22.12554
G1 X141.842 Y161.464 E22.15555
G1 X141.029 Y161.858 E22.1856
G1 X140.185 Y162.178 E22.21562
G1 X139.315 Y162.423 E22.24569
G1 X138.428 Y162.589 E22.2757
G1 X137.277 Y162.687 E22.31412
G1 X136.956 Y162.696 E22.3248
G1 X136.67 Y162.7 E22.33431
G1 X103.575 Y162.699 E23.43506
G1 X102.877 Y162.69 E23.45828
G1 X101.976 Y162.639 E23.48829
G1 X101.082 Y162.507 E23.51835
G1 X100.204 Y162.298 E23.54837
G1 X99.347 Y162.011 E23.57843
G1 X98.52 Y161.65 E23.60844
G1 X97.727 Y161.217 E23.63849
G1 X96.976 Y160.716 E23.66852
G1 X96.272 Y160.15 E23.69856
G1 X95.621 Y159.524 E23.7286
G1 X95.028 Y158.843 E23.75863
G1 X94.498 Y158.112 E23.78866
G1 X94.034 Y157.337 E23.81871
G1 X93.64 Y156.524 E23.84876
G1 X93.32 Y155.68 E23.87878
G1 X93.076 Y154.81 E23.90883
G1 X92.91 Y153.922 E23.93888
G1 X92.813 Y152.767 E23.97743
G1 X92.804 Y152.434 E23.98851
G1 X92.8 Y152.158 E23.99769
G1 X92.801 Y88.036 E26.1304
G1 X92.81 Y87.371 E26.15252
G1 X92.862 Y86.469 E26.18257
G1 X92.994 Y85.576 E26.21259
G1 X93.204 Y84.698 E26.24262
G1 X93.491 Y83.841 E26.27268
G1 X93.853 Y83.014 E26.3027
G1 X94.286 Y82.222 E26.33272
G1 X94.788 Y81.471 E26.36277
G1 X95.355 Y80.767 E26.39283
G1 F1500 E19.89283
;MESH:WaterCover (SensorHat).stl
G0 F6000 X113.669 Y108.796
G0 X112.066 Y107.863
G0 X111.565 Y112.238
G0 X111.662 Y113.807
G0 X112.05 Y115.331
G0 X112.713 Y116.758
G0 X113.629 Y118.035
G0 X114.768 Y119.122
G0 X116.087 Y119.977
G0 X117.266 Y120.459
G0 X120.177 Y121.498
;TYPE:WALL-INNER
G1 F1500 E26.39283
G1 F1200 X120.737 Y121.47 E26.41148
G1 X121.291 Y121.407 E26.43003
G1 X121.844 Y121.31 E26.4487
G1 X122.353 Y121.187 E26.46612
G1 X122.887 Y121.025 E26.48468
G1 X123.413 Y120.828 E26.50336
G1 X123.924 Y120.6 E26.52197
G1 X124.418 Y120.341 E26.54052
G1 X124.899 Y120.052 E26.55919
G1 X125.387 Y119.71 E26.57901
G1 X125.798 Y119.384 E26.59645
G1 X126.213 Y119.012 E26.61499
G1 X126.607 Y118.613 E26.63364
G1 X126.974 Y118.189 E26.65229
G1 X127.314 Y117.745 E26.67089
G1 X127.626 Y117.28 E26.68952
G1 X127.909 Y116.797 E26.70814
G1 X128.16 Y116.297 E26.72674
G1 X128.381 Y115.782 E26.74538
G1 X128.568 Y115.255 E26.76398
G1 X128.724 Y114.717 E26.78261
G1 X128.844 Y114.169 E26.80127
G1 X128.931 Y113.618 E26.81983
G1 X128.981 Y113.072 E26.83806
G1 X128.983 Y113.059 E26.8385
G1 X129 Y112.5 E26.8571
G1 X128.983 Y111.941 E26.8757
G1 X128.931 Y111.382 E26.89437
G1 X128.844 Y110.831 E26.91293
G1 X128.724 Y110.283 E26.93159
G1 X128.568 Y109.745 E26.95022
G1 X128.381 Y109.218 E26.96882
G1 X128.16 Y108.703 E26.98745
G1 X127.909 Y108.203 E27.00606
G1 X127.626 Y107.72 E27.02468
G1 X127.314 Y107.255 E27.04331
G1 X126.974 Y106.811 E27.06191
G1 X126.607 Y106.387 E27.08056
G1 X126.213 Y105.988 E27.09921
G1 X125.796 Y105.616 E27.11779
G1 X125.331 Y105.248 E27.13752
G1 X124.897 Y104.948 E27.15507
G1 X124.418 Y104.659 E27.17367
G1 X123.924 Y104.4 E27.19222
G1 X123.413 Y104.172 E27.21084
G1 X122.887 Y103.975 E27.22952
G1 X122.351 Y103.813 E27.24814
G1 X121.808 Y103.683 E27.26671
G1 X121.268 Y103.591 E27.28493
G1 X121.256 Y103.588 E27.28534
G1 X120.697 Y103.526 E27.30405
G1 X120.103 Y103.501 E27.32382
G1 X119.544 Y103.511 E27.34242
G1 X118.985 Y103.556 E27.36107
G1 X118.431 Y103.638 E27.3797
G1 X117.884 Y103.752 E27.39828
G1 X117.378 Y103.89 E27.41573
G1 X116.849 Y104.069 E27.4343
G1 X116.33 Y104.282 E27.45296
G1 X115.826 Y104.527 E27.4716
G1 X115.339 Y104.801 E27.49018
G1 X114.87 Y105.105 E27.50877
G1 X114.42 Y105.438 E27.52739
G1 X113.991 Y105.799 E27.54604
G1 X113.586 Y106.185 E27.56465
G1 X113.206 Y106.598 E27.58332
G1 X112.852 Y107.03 E27.60189
G1 X112.527 Y107.485 E27.62049
G1 X112.23 Y107.959 E27.63909
G1 X111.962 Y108.451 E27.65773
G1 X111.725 Y108.96 E27.6764
G1 X111.522 Y109.481 E27.695
G1 X111.349 Y110.013 E27.71361
G1 X111.212 Y110.557 E27.73226
G1 X111.112 Y111.094 E27.75043
G1 X111.109 Y111.106 E27.75084
G1 X111.04 Y111.662 E27.76948
G1 X111.04 Y111.673 E27.76984
G1 X111.004 Y112.219 E27.78804
G1 X111.004 Y112.781 E27.80674
G1 X111.04 Y113.338 E27.8253
G1 X111.109 Y113.894 E27.84393
G1 X111.212 Y114.443 E27.86251
G1 X111.349 Y114.987 E27.88117
G1 X111.522 Y115.519 E27.89978
G1 X111.725 Y116.04 E27.91838
G1 X111.962 Y116.549 E27.93705
G1 X112.23 Y117.041 E27.95568
G1 X112.527 Y117.515 E27.97429
G1 X112.852 Y117.97 E27.99289
G1 X113.206 Y118.402 E28.01146
G1 X113.586 Y118.815 E28.03013
G1 X113.991 Y119.201 E28.04874
G1 X114.42 Y119.562 E28.06739
G1 X114.87 Y119.895 E28.08601
G1 X115.339 Y120.199 E28.10459
G1 X115.826 Y120.473 E28.12318
G1 X116.33 Y120.718 E28.14182
G1 X116.849 Y120.931 E28.16048
G1 X117.379 Y121.11 E28.17908
G1 X117.92 Y121.256 E28.19772
G1 X118.467 Y121.368 E28.21629
G1 X119.021 Y121.448 E28.23491
G1 X119.582 Y121.491 E28.25362
G1 X120.177 Y121.498 E28.27341
G0 F6000 X120.169 Y121.098
G1 F1200 X120.704 Y121.071 E28.29123
G1 X121.234 Y121.011 E28.30897
G1 X121.762 Y120.918 E28.3268
G1 X122.248 Y120.801 E28.34343
G1 X122.759 Y120.646 E28.36119
G1 X123.261 Y120.458 E28.37902
G1 X123.749 Y120.24 E28.3968
G1 X124.222 Y119.992 E28.41456
G1 X124.681 Y119.716 E28.43237
G1 X125.148 Y119.389 E28.45133
G1 X125.54 Y119.078 E28.46798
G1 X125.937 Y118.722 E28.48571
G1 X126.313 Y118.341 E28.50352
G1 X126.664 Y117.936 E28.52134
G1 X126.989 Y117.512 E28.53911
G1 X127.287 Y117.067 E28.55692
G1 X127.557 Y116.606 E28.57469
G1 X127.797 Y116.128 E28.59248
G1 X128.008 Y115.636 E28.61029
G1 X128.187 Y115.132 E28.62808
G1 X128.336 Y114.618 E28.64588
G1 X128.451 Y114.095 E28.66369
G1 X128.534 Y113.568 E28.68143
G1 X128.584 Y113.034 E28.69927
G1 X128.6 Y112.5 E28.71704
G1 X128.584 Y111.966 E28.73481
G1 X128.534 Y111.432 E28.75265
G1 X128.451 Y110.905 E28.77039
G1 X128.336 Y110.382 E28.7882
G1 X128.187 Y109.868 E28.806
G1 X128.008 Y109.364 E28.82379
G1 X127.797 Y108.872 E28.84159
G1 X127.557 Y108.394 E28.85938
G1 X127.287 Y107.933 E28.87715
G1 X126.989 Y107.488 E28.89497
G1 X126.664 Y107.064 E28.91274
G1 X126.313 Y106.659 E28.93056
G1 X125.937 Y106.278 E28.94836
G1 X125.539 Y105.922 E28.96612
G1 X125.093 Y105.57 E28.98502
G1 X124.68 Y105.284 E29.00173
G1 X124.222 Y105.008 E29.01952
G1 X123.749 Y104.76 E29.03728
G1 X123.261 Y104.542 E29.05506
G1 X122.759 Y104.354 E29.07289
G1 X122.247 Y104.199 E29.09068
G1 X121.727 Y104.075 E29.10846
G1 X121.2 Y103.984 E29.12625
G1 X120.667 Y103.925 E29.14408
G1 X120.098 Y103.901 E29.16302
G1 X119.564 Y103.911 E29.18079
G1 X119.03 Y103.954 E29.19861
G1 X118.501 Y104.032 E29.21639
G1 X117.978 Y104.141 E29.23416
G1 X117.495 Y104.273 E29.25081
G1 X116.989 Y104.444 E29.26858
G1 X116.493 Y104.647 E29.2864
G1 X116.012 Y104.881 E29.30419
G1 X115.546 Y105.143 E29.32197
G1 X115.098 Y105.434 E29.33974
G1 X114.668 Y105.752 E29.35753
G1 X114.258 Y106.097 E29.37535
G1 X113.871 Y106.466 E29.39314
G1 X113.508 Y106.86 E29.41096
G1 X113.17 Y107.273 E29.42871
G1 X112.859 Y107.708 E29.44649
G1 X112.575 Y108.161 E29.46428
G1 X112.319 Y108.631 E29.48208
G1 X112.093 Y109.117 E29.4999
G1 X111.899 Y109.615 E29.51768
G1 X111.734 Y110.124 E29.53548
G1 X111.603 Y110.643 E29.55328
G1 X111.504 Y111.168 E29.57105
G1 X111.438 Y111.699 E29.58884
G1 X111.404 Y112.232 E29.60661
G1 X111.404 Y112.768 E29.62444
G1 X111.438 Y113.301 E29.6422
G1 X111.504 Y113.832 E29.66
G1 X111.603 Y114.357 E29.67777
G1 X111.734 Y114.876 E29.69557
G1 X111.899 Y115.385 E29.71337
G1 X112.093 Y115.883 E29.73114
G1 X112.319 Y116.369 E29.74897
G1 X112.575 Y116.839 E29.76677
G1 X112.859 Y117.292 E29.78455
G1 X113.17 Y117.727 E29.80234
G1 X113.508 Y118.14 E29.82009
G1 X113.871 Y118.534 E29.83791
G1 X114.258 Y118.903 E29.85569
G1 X114.668 Y119.248 E29.87351
G1 X115.098 Y119.566 E29.8913
G1 X115.546 Y119.857 E29.90907
G1 X116.012 Y120.119 E29.92685
G1 X116.493 Y120.353 E29.94464
G1 X116.989 Y120.556 E29.96247
G1 X117.495 Y120.727 E29.98023
G1 X118.012 Y120.867 E29.99805
G1 X118.536 Y120.974 E30.01583
G1 X119.065 Y121.05 E30.03361
G1 X119.6 Y121.091 E30.05146
G1 X120.169 Y121.098 E30.07038
G0 F6000 X120.161 Y120.698
;TYPE:WALL-OUTER
G1 F1200 X120.671 Y120.672 E30.08737
G1 X121.177 Y120.615 E30.1043
G1 X121.68 Y120.526 E30.12129
G1 X122.143 Y120.415 E30.13713
G1 X122.631 Y120.267 E30.15409
G1 X123.109 Y120.088 E30.17107
G1 X123.574 Y119.88 E30.18801
G1 X124.026 Y119.643 E30.20498
G1 X124.463 Y119.38 E30.22195
G1 X124.909 Y119.068 E30.24005
G1 X125.282 Y118.772 E30.25589
G1 X125.661 Y118.432 E30.27282
G1 X126.019 Y118.069 E30.28978
G1 X126.354 Y117.683 E30.30678
G1 X126.664 Y117.279 E30.32372
G1 X126.948 Y116.855 E30.34069
G1 X127.205 Y116.415 E30.35764
G1 X127.434 Y115.959 E30.37461
G1 X127.635 Y115.49 E30.39158
G1 X127.806 Y115.009 E30.40856
G1 X127.948 Y114.519 E30.42553
G1 X128.058 Y114.021 E30.44249
G1 X128.137 Y113.518 E30.45943
